( Made using CamBam - http://www.cambam.co.uk )
( Display 11/29/2012 6:24:16 PM )
( T4 : 0.125 )
G20 G90 G64 G40
G0 Z0.25
( T4 : 0.125 )
T4 M6
( Profile1 )
G17
M3 S25000
G0 X0.3834 Y1.2825
G1 F30.0 Z-0.1
G1 F50.0 Y2.7325
G1 X4.1167
G1 Y1.2825
G1 X0.3834
G1 F30.0 Z-0.2
G1 F50.0 Y2.7325
G1 X4.1167
G1 Y1.2825
G1 X0.3834
G1 F30.0 Z-0.25
G1 F50.0 Y2.7325
G1 X4.1167
G1 Y1.2825
G1 X0.3834
( Profile2 )
S25000
G0 Z0.25
G0 X0.0 Y-0.0625
G1 F30.0 Z-0.1
G1 F50.0 X4.5
G3 X4.5625 Y0.0 I0.0 J0.0625
G1 Y4.0
G3 X4.5 Y4.0625 I-0.0625 J0.0
G1 X0.0
G3 X-0.0625 Y4.0 I0.0 J-0.0625
G1 Y0.0
G3 X0.0 Y-0.0625 I0.0625 J0.0
G1 F30.0 Z-0.2
G1 F50.0 X4.5
G3 X4.5625 Y0.0 I0.0 J0.0625
G1 Y4.0
G3 X4.5 Y4.0625 I-0.0625 J0.0
G1 X0.0
G3 X-0.0625 Y4.0 I0.0 J-0.0625
G1 Y0.0
G3 X0.0 Y-0.0625 I0.0625 J0.0
G1 F30.0 Z-0.25
G1 F50.0 X4.5
G3 X4.5625 Y0.0 I0.0 J0.0625
G1 Y4.0
G3 X4.5 Y4.0625 I-0.0625 J0.0
G1 X0.0
G3 X-0.0625 Y4.0 I0.0 J-0.0625
G1 Y0.0
G3 X0.0 Y-0.0625 I0.0625 J0.0
( Profile3 )
S25000
G0 Z0.25
G0 X0.125 Y4.0625
G1 F30.0 Z-0.15
G3 F50.0 X-0.0625 Y3.875 I0.0 J-0.1875
G0 Z0.25
G0 X0.125 Y4.0625
G1 F30.0 Z-0.25
G3 F50.0 X-0.0625 Y3.875 I0.0 J-0.1875
G0 Z0.25
G0 Y0.125
G1 F30.0 Z-0.15
G3 F50.0 X0.125 Y-0.0625 I0.1875 J0.0
G0 Z0.25
G0 X-0.0625 Y0.125
G1 F30.0 Z-0.25
G3 F50.0 X0.125 Y-0.0625 I0.1875 J0.0
G0 Z0.25
G0 X4.375
G1 F30.0 Z-0.15
G3 F50.0 X4.5625 Y0.125 I0.0 J0.1875
G0 Z0.25
G0 X4.375 Y-0.0625
G1 F30.0 Z-0.25
G3 F50.0 X4.5625 Y0.125 I0.0 J0.1875
G0 Z0.25
G0 Y3.875
G1 F30.0 Z-0.15
G3 F50.0 X4.375 Y4.0625 I-0.1875 J0.0
G0 Z0.25
G0 X4.5625 Y3.875
G1 F30.0 Z-0.25
G3 F50.0 X4.375 Y4.0625 I-0.1875 J0.0
G0 Z0.25
M5
M30
