; generated by PrusaSlicer 2.2.0+linux-x64 on 2020-10-03 at 16:43:41 UTC

; 

; external perimeters extrusion width = 0.45mm
; perimeters extrusion width = 0.45mm
; infill extrusion width = 0.45mm
; solid infill extrusion width = 0.45mm
; top infill extrusion width = 0.40mm
; first layer extrusion width = 0.42mm

M73 P0 R20
M73 Q0 S20
M201 X1000 Y1000 Z200 E5000 ; sets maximum accelerations, mm/sec^2
M203 X200 Y200 Z12 E120 ; sets maximum feedrates, mm/sec
M204 P1250 R1250 T1250 ; sets acceleration (P, T) and retract acceleration (R), mm/sec^2
M205 X8.00 Y8.00 Z0.40 E4.50 ; sets the jerk limits, mm/sec
M205 S0 T0 ; sets the minimum extruding and travel feed rate, mm/sec
M107
M862.3 P "MK3S" ; printer model check
M862.1 P0.4 ; nozzle diameter check
M115 U3.9.0 ; tell printer latest fw version
G90 ; use absolute coordinates
M83 ; extruder relative mode
M104 S240 ; set extruder temp
M140 S85 ; set bed temp
M190 S85 ; wait for bed temp
M109 S240 ; wait for extruder temp
G28 W ; home all without mesh bed level
G80 ; mesh bed leveling
G1 Y-3.0 F1000.0 ; go outside print area
G92 E0.0
G1 X60.0 E9.0 F1000.0 ; intro line
M73 Q0 S20
M73 P0 R20
G1 X100.0 E12.5 F1000.0 ; intro line
G92 E0.0
M221 S95
G21 ; set units to millimeters
G90 ; use absolute coordinates
M83 ; use relative distances for extrusion
M900 K0.12 ; Filament gcode LA 1.5
M900 K45 ; Filament gcode LA 1.0
;BEFORE_LAYER_CHANGE
G92 E0.0
;0.2


G1 E-1.40000 F2100.00000
G1 Z0.200 F10800.000
;AFTER_LAYER_CHANGE
;0.2
G1 Z0.400
G1 X110.552 Y92.089
G1 Z0.200
G1 E1.40000 F2100.00000
M204 S1000
G1 F1200.000
G1 X111.059 Y91.271 E0.03018
G1 X111.468 Y90.899 E0.01733
G1 X111.942 Y90.616 E0.01733
G1 X112.463 Y90.433 E0.01733
G1 X113.011 Y90.358 E0.01733
G1 X136.894 Y90.356 E0.74884
G1 X137.903 Y90.549 E0.03221
G1 X138.768 Y91.095 E0.03208
G1 X139.374 Y91.920 E0.03208
G1 X139.637 Y92.913 E0.03221
G1 X139.643 Y116.964 E0.75411
G1 X139.448 Y117.911 E0.03031
G1 X138.941 Y118.729 E0.03018
G1 X138.519 Y119.111 E0.01784
G1 X138.024 Y119.400 E0.01796
G1 X137.481 Y119.580 E0.01796
G1 X136.911 Y119.644 E0.01796
G1 X113.036 Y119.643 E0.74858
G1 X112.089 Y119.448 E0.03031
G1 X111.271 Y118.941 E0.03018
G1 X110.889 Y118.519 E0.01784
G1 X110.600 Y118.024 E0.01796
G1 X110.420 Y117.481 E0.01796
G1 X110.356 Y116.911 E0.01796
G1 X110.357 Y93.036 E0.74858
G1 X110.540 Y92.148 E0.02843
G1 F8640.000
G1 X111.059 Y91.271 E-0.23533
G1 X111.468 Y90.899 E-0.12759
G1 X111.942 Y90.616 E-0.12759
G1 X112.463 Y90.433 E-0.12759
G1 X113.011 Y90.358 E-0.12759
G1 X115.541 Y90.357 E-0.58431
G1 E-0.07000 F2100.00000
G1 Z0.400 F10800.000
G1 X112.116 Y90.951
G1 Z0.200
G1 E1.40000 F2100.00000
G1 F1200.000
G1 X113.037 Y90.734 E0.02966
G1 X136.894 Y90.733 E0.74803
G1 X137.768 Y90.901 E0.02790
G1 X138.519 Y91.378 E0.02790
G1 X139.041 Y92.099 E0.02790
G1 X139.262 Y92.960 E0.02790
G1 X139.266 Y116.947 E0.75208
G1 X139.096 Y117.775 E0.02649
G1 X138.647 Y118.491 E0.02649
G1 X138.282 Y118.817 E0.01538
G1 X137.856 Y119.062 E0.01538
G1 X137.390 Y119.214 E0.01538
G1 X136.903 Y119.267 E0.01538
G1 X113.053 Y119.266 E0.74779
G1 X112.225 Y119.096 E0.02649
G1 X111.509 Y118.647 E0.02649
G1 X111.183 Y118.282 E0.01538
G1 X110.938 Y117.856 E0.01538
G1 X110.786 Y117.390 E0.01538
G1 X110.733 Y116.903 E0.01538
G1 X110.734 Y93.053 E0.74779
G1 X110.904 Y92.225 E0.02649
G1 X111.353 Y91.509 E0.02649
G1 X112.067 Y90.986 E0.02778
G1 F8640.000
G1 X113.037 Y90.734 E-0.23123
G1 X117.795 Y90.734 E-1.09877
G1 E-0.07000 F2100.00000
G1 Z0.400 F10800.000
G1 X130.055 Y109.528
G1 Z0.200
G1 E1.40000 F2100.00000
G1 F1200.000
G1 X130.565 Y109.218 E0.01871
G1 X131.128 Y109.022 E0.01869
G1 X131.696 Y108.950 E0.01798
G1 X132.127 Y108.971 E0.01351
G1 X132.699 Y109.105 E0.01842
G1 X133.238 Y109.360 E0.01871
G1 X133.704 Y109.716 E0.01838
G1 X133.987 Y110.025 E0.01313
G1 X134.301 Y110.520 E0.01838
G1 X134.507 Y111.080 E0.01871
G1 X134.591 Y111.670 E0.01871
G1 X134.549 Y112.266 E0.01871
G1 X134.382 Y112.839 E0.01871
G1 X134.104 Y113.355 E0.01838
G1 X133.844 Y113.683 E0.01313
G1 X133.405 Y114.071 E0.01838
G1 X132.885 Y114.363 E0.01871
G1 X132.325 Y114.536 E0.01838
G1 X131.909 Y114.588 E0.01313
G1 X131.334 Y114.558 E0.01805
G1 X130.926 Y114.462 E0.01313
G1 X130.388 Y114.231 E0.01838
G1 X129.901 Y113.885 E0.01871
G1 X129.498 Y113.445 E0.01871
G1 X129.197 Y112.930 E0.01871
G1 X129.014 Y112.373 E0.01838
G1 X128.955 Y111.959 E0.01313
G1 X128.976 Y111.373 E0.01838
G1 X129.122 Y110.794 E0.01871
G1 X129.381 Y110.269 E0.01838
G1 X129.630 Y109.932 E0.01313
G1 X130.012 Y109.570 E0.01650
G1 X130.271 Y109.843 F10800.000
G1 F1200.000
G1 X130.727 Y109.561 E0.01681
G1 X131.214 Y109.391 E0.01619
G1 X131.711 Y109.328 E0.01570
G1 X132.074 Y109.346 E0.01141
G1 X132.574 Y109.463 E0.01609
G1 X133.041 Y109.683 E0.01619
G1 X133.448 Y109.995 E0.01608
G1 X133.686 Y110.255 E0.01104
G1 X133.961 Y110.688 E0.01608
G1 X134.139 Y111.172 E0.01619
G1 X134.212 Y111.684 E0.01619
G1 X134.175 Y112.199 E0.01619
G1 X134.031 Y112.695 E0.01619
G1 X133.788 Y113.146 E0.01608
G1 X133.569 Y113.422 E0.01104
G1 X133.185 Y113.762 E0.01608
G1 X132.735 Y114.015 E0.01619
G1 X132.245 Y114.166 E0.01608
G1 X131.896 Y114.210 E0.01104
G1 X131.387 Y114.183 E0.01596
G1 X131.044 Y114.103 E0.01104
G1 X130.573 Y113.900 E0.01608
G1 X130.152 Y113.601 E0.01619
G1 X129.804 Y113.220 E0.01619
G1 X129.543 Y112.774 E0.01619
G1 X129.382 Y112.287 E0.01608
G1 X129.333 Y111.939 E0.01104
G1 X129.351 Y111.426 E0.01608
G1 X129.477 Y110.925 E0.01619
G1 X129.704 Y110.466 E0.01608
G1 X129.913 Y110.182 E0.01104
G1 X130.227 Y109.884 E0.01357
G1 X130.222 Y109.446 F10800.000
G1 F8640.000
G1 X130.727 Y109.561 E-0.13736
G1 X131.214 Y109.391 E-0.11922
G1 X131.711 Y109.328 E-0.11560
G1 X132.074 Y109.346 E-0.08404
G1 X132.574 Y109.463 E-0.11849
G1 X133.041 Y109.683 E-0.11926
G1 X133.448 Y109.995 E-0.11840
G1 X133.686 Y110.255 E-0.08129
G1 X133.961 Y110.688 E-0.11840
G1 X134.139 Y111.172 E-0.11926
G1 X134.212 Y111.684 E-0.11926
G1 X134.188 Y112.027 E-0.07941
G1 E-0.07000 F2100.00000
G1 Z0.400 F10800.000
G1 X128.787 Y108.787
G1 Z0.200
G1 E1.40000 F2100.00000
G1 F1200.000
G1 X136.103 Y108.787 E0.22938
G1 X136.103 Y116.103 E0.22938
G1 X128.787 Y116.103 E0.22938
G1 X128.787 Y108.847 E0.22750
G1 X128.410 Y108.410 F10800.000
G1 F1200.000
G1 X136.480 Y108.410 E0.25303
G1 X136.480 Y116.480 E0.25303
G1 X128.410 Y116.480 E0.25303
G1 X128.410 Y108.470 E0.25115
G1 X128.796 Y108.514 F10800.000
G1 F8640.000
G1 X134.170 Y108.427 E-1.33000
G1 E-0.07000 F2100.00000
G1 Z0.400 F10800.000
G1 X128.900 Y109.831
G1 Z0.200
G1 E1.40000 F2100.00000
G1 F1200.000
G1 X129.161 Y110.091 E0.01243
G1 X129.404 Y109.761 E0.01385
G1 X129.070 Y109.427 E0.01596
G1 X129.070 Y109.070 E0.01204
G1 X129.287 Y109.070 E0.00733
G1 X129.816 Y109.599 E0.02525
G1 X130.104 Y109.095 F10800.000
G1 F1200.000
G1 X130.563 Y108.997 E0.00284
G1 F8640.000
G1 X130.104 Y109.095 E-0.10824
G1 E-1.29176 F2100.00000
G1 Z0.400 F10800.000
G1 X133.292 Y108.976
G1 Z0.200
G1 E1.40000 F2100.00000
G1 F1200.000
G1 X133.384 Y109.226 E0.00212
G1 F8640.000
G1 X133.292 Y108.976 E-0.06156
G1 E-1.33844 F2100.00000
G1 Z0.400 F10800.000
G1 X135.990 Y109.685
G1 Z0.200
G1 E1.40000 F2100.00000
G1 F1200.000
G1 X135.375 Y109.070 E0.02804
G1 X134.826 Y109.070 E0.01767
G1 X135.820 Y110.063 E0.04530
G1 X135.820 Y110.612 E0.01767
G1 X134.278 Y109.070 E0.07029
G1 X133.730 Y109.070 E0.01767
G1 X135.820 Y111.160 E0.09529
G1 X135.820 Y111.708 E0.01767
G1 X134.585 Y110.473 E0.05633
G1 X134.783 Y111.010 E0.01846
G1 X134.817 Y111.254 E0.00793
G1 X135.820 Y112.257 E0.04572
G1 X135.820 Y112.805 E0.01767
G1 X134.862 Y111.846 E0.04369
G1 X134.818 Y112.351 E0.01633
G1 X135.820 Y113.353 E0.04567
G1 X135.820 Y113.901 E0.01767
G1 X134.695 Y112.776 E0.05129
G1 X134.646 Y112.946 E0.00571
G1 X134.531 Y113.160 E0.00782
G1 X135.820 Y114.450 E0.05879
G1 X135.820 Y114.998 E0.01767
G1 X134.338 Y113.515 E0.06758
G1 X134.095 Y113.821 E0.01258
G1 X135.820 Y115.546 E0.07863
G1 X135.820 Y115.820 E0.00883
G1 X135.546 Y115.820 E0.00884
G1 X133.813 Y114.087 E0.07899
G1 X133.512 Y114.335 E0.01256
G1 X134.998 Y115.820 E0.06771
G1 X134.449 Y115.820 E0.01767
G1 X133.161 Y114.532 E0.05872
G1 X132.997 Y114.624 E0.00608
G1 X132.774 Y114.693 E0.00751
G1 X133.901 Y115.820 E0.05137
G1 X133.353 Y115.820 E0.01767
G1 X132.351 Y114.818 E0.04568
G1 X131.853 Y114.868 E0.01614
G1 X132.805 Y115.820 E0.04340
G1 X132.256 Y115.820 E0.01767
G1 X131.269 Y114.833 E0.04501
G1 X130.837 Y114.732 E0.01429
G1 X130.456 Y114.568 E0.01338
G1 X131.708 Y115.820 E0.05708
G1 X131.160 Y115.820 E0.01767
G1 X129.070 Y113.740 E0.09504
G1 X129.070 Y114.278 E0.01734
G1 X130.612 Y115.820 E0.07029
G1 X130.063 Y115.820 E0.01767
G1 X129.070 Y114.827 E0.04529
G1 X129.070 Y115.375 E0.01767
G1 X129.685 Y115.990 E0.02803
G1 F8640.000
G1 X129.070 Y115.375 E-0.20080
G1 X129.070 Y114.827 E-0.12659
G1 X130.063 Y115.820 E-0.32443
G1 X130.612 Y115.820 E-0.12659
G1 X129.070 Y114.278 E-0.50346
G1 X129.070 Y114.070 E-0.04812
G1 E-0.07000 F2100.00000
G1 Z0.400 F10800.000
G1 X129.102 Y113.442
G1 Z0.200
G1 E1.40000 F2100.00000
G1 F1200.000
G1 X129.001 Y113.018 E0.00189
G1 X129.017 Y112.990 E0.00014
G1 F8640.000
G1 X129.001 Y113.018 E-0.00752
G1 X129.102 Y113.442 E-0.10069
G1 E-1.29179 F2100.00000
G1 Z0.400 F10800.000
G1 X119.659 Y112.266
G1 Z0.200
G1 E1.40000 F2100.00000
G1 F1200.000
G1 X119.492 Y112.839 E0.01871
G1 X119.214 Y113.355 E0.01838
G1 X118.954 Y113.683 E0.01313
G1 X118.515 Y114.071 E0.01838
G1 X117.995 Y114.363 E0.01871
G1 X117.435 Y114.536 E0.01838
G1 X117.019 Y114.588 E0.01313
G1 X116.444 Y114.558 E0.01805
G1 X116.036 Y114.462 E0.01313
G1 X115.498 Y114.231 E0.01838
G1 X115.011 Y113.885 E0.01871
G1 X114.608 Y113.445 E0.01871
G1 X114.307 Y112.930 E0.01871
G1 X114.124 Y112.373 E0.01838
G1 X114.065 Y111.959 E0.01313
G1 X114.086 Y111.373 E0.01838
G1 X114.232 Y110.794 E0.01871
G1 X114.491 Y110.269 E0.01838
G1 X114.740 Y109.932 E0.01313
G1 X115.165 Y109.528 E0.01838
G1 X115.675 Y109.218 E0.01871
G1 X116.238 Y109.022 E0.01869
G1 X116.806 Y108.950 E0.01798
G1 X117.237 Y108.971 E0.01351
G1 X117.809 Y109.105 E0.01842
G1 X118.348 Y109.360 E0.01871
G1 X118.814 Y109.716 E0.01838
G1 X119.097 Y110.025 E0.01313
G1 X119.411 Y110.520 E0.01838
G1 X119.617 Y111.080 E0.01871
G1 X119.701 Y111.670 E0.01871
G1 X119.663 Y112.206 E0.01683
G1 X119.287 Y112.179 F10800.000
G1 F1200.000
G1 X119.141 Y112.695 E0.01681
G1 X118.898 Y113.146 E0.01608
G1 X118.679 Y113.422 E0.01104
G1 X118.295 Y113.762 E0.01608
G1 X117.845 Y114.015 E0.01619
G1 X117.355 Y114.166 E0.01608
G1 X117.006 Y114.210 E0.01104
G1 X116.497 Y114.183 E0.01596
G1 X116.154 Y114.103 E0.01104
G1 X115.683 Y113.900 E0.01608
G1 X115.262 Y113.601 E0.01619
G1 X114.914 Y113.220 E0.01619
G1 X114.653 Y112.774 E0.01619
G1 X114.492 Y112.287 E0.01608
G1 X114.443 Y111.939 E0.01104
G1 X114.461 Y111.426 E0.01608
G1 X114.587 Y110.925 E0.01619
G1 X114.814 Y110.466 E0.01608
G1 X115.023 Y110.182 E0.01104
G1 X115.395 Y109.829 E0.01608
G1 X115.837 Y109.561 E0.01619
G1 X116.324 Y109.391 E0.01619
G1 X116.821 Y109.328 E0.01570
G1 X117.184 Y109.346 E0.01141
G1 X117.684 Y109.463 E0.01609
G1 X118.151 Y109.683 E0.01619
G1 X118.558 Y109.995 E0.01608
G1 X118.796 Y110.255 E0.01104
G1 X119.071 Y110.688 E0.01608
G1 X119.249 Y111.172 E0.01619
G1 X119.322 Y111.684 E0.01619
G1 X119.291 Y112.119 E0.01369
G1 X119.594 Y112.435 F10800.000
G1 F8640.000
G1 X119.141 Y112.695 E-0.13736
G1 X118.898 Y113.146 E-0.11840
G1 X118.679 Y113.422 E-0.08129
G1 X118.295 Y113.762 E-0.11840
G1 X117.845 Y114.015 E-0.11926
G1 X117.355 Y114.166 E-0.11840
G1 X117.006 Y114.210 E-0.08129
G1 X116.497 Y114.183 E-0.11754
G1 X116.154 Y114.103 E-0.08129
G1 X115.683 Y113.900 E-0.11840
G1 X115.262 Y113.601 E-0.11926
G1 X114.914 Y113.221 E-0.11911
G1 E-0.07000 F2100.00000
G1 Z0.400 F10800.000
G1 X121.213 Y108.787
G1 Z0.200
G1 E1.40000 F2100.00000
G1 F1200.000
G1 X121.213 Y116.103 E0.22938
G1 X113.897 Y116.103 E0.22938
G1 X113.897 Y108.787 E0.22938
G1 X121.153 Y108.787 E0.22750
G1 X121.590 Y108.410 F10800.000
G1 F1200.000
G1 X121.590 Y116.480 E0.25303
G1 X113.520 Y116.480 E0.25303
G1 X113.520 Y108.410 E0.25303
G1 X121.530 Y108.410 E0.25115
G1 X121.486 Y108.796 F10800.000
G1 F8640.000
G1 X121.573 Y114.170 E-1.33000
G1 E-0.07000 F2100.00000
G1 Z0.400 F10800.000
G1 X121.100 Y109.685
G1 Z0.200
G1 E1.40000 F2100.00000
G1 F1200.000
G1 X120.485 Y109.070 E0.02804
G1 X119.936 Y109.070 E0.01767
G1 X120.930 Y110.063 E0.04530
G1 X120.930 Y110.612 E0.01767
G1 X119.388 Y109.070 E0.07029
G1 X118.840 Y109.070 E0.01767
G1 X120.930 Y111.160 E0.09529
G1 X120.930 Y111.708 E0.01767
G1 X119.695 Y110.473 E0.05633
G1 X119.893 Y111.010 E0.01846
G1 X119.927 Y111.254 E0.00793
G1 X120.930 Y112.257 E0.04572
G1 X120.930 Y112.805 E0.01767
G1 X119.972 Y111.846 E0.04369
G1 X119.928 Y112.351 E0.01633
G1 X120.930 Y113.353 E0.04567
G1 X120.930 Y113.901 E0.01767
G1 X119.805 Y112.776 E0.05129
G1 X119.756 Y112.946 E0.00571
G1 X119.641 Y113.160 E0.00782
G1 X120.930 Y114.450 E0.05879
G1 X120.930 Y114.998 E0.01767
G1 X119.448 Y113.515 E0.06758
G1 X119.205 Y113.821 E0.01258
G1 X120.930 Y115.546 E0.07863
G1 X120.930 Y115.820 E0.00883
G1 X120.656 Y115.820 E0.00884
G1 X118.923 Y114.087 E0.07899
G1 X118.622 Y114.335 E0.01256
G1 X120.108 Y115.820 E0.06771
G1 X119.559 Y115.820 E0.01767
G1 X118.271 Y114.532 E0.05872
G1 X118.107 Y114.624 E0.00608
G1 X117.884 Y114.693 E0.00751
G1 X119.011 Y115.820 E0.05137
G1 X118.463 Y115.820 E0.01767
G1 X117.461 Y114.818 E0.04568
G1 X116.963 Y114.868 E0.01614
G1 X117.915 Y115.820 E0.04340
G1 X117.366 Y115.820 E0.01767
G1 X116.379 Y114.833 E0.04501
G1 X115.947 Y114.732 E0.01429
G1 X115.566 Y114.568 E0.01338
G1 X116.818 Y115.820 E0.05708
G1 X116.270 Y115.820 E0.01767
G1 X114.180 Y113.740 E0.09504
G1 X114.180 Y114.278 E0.01734
G1 X115.722 Y115.820 E0.07029
G1 X115.173 Y115.820 E0.01767
G1 X114.180 Y114.827 E0.04529
G1 X114.180 Y115.375 E0.01767
G1 X114.795 Y115.990 E0.02803
G1 F8640.000
G1 X114.180 Y115.375 E-0.20080
G1 X114.180 Y114.827 E-0.12659
G1 X115.173 Y115.820 E-0.32443
G1 X115.722 Y115.820 E-0.12659
G1 X114.180 Y114.278 E-0.50346
G1 X114.180 Y114.070 E-0.04812
G1 E-0.07000 F2100.00000
G1 Z0.400 F10800.000
G1 X114.212 Y113.442
G1 Z0.200
G1 E1.40000 F2100.00000
G1 F1200.000
G1 X114.111 Y113.018 E0.00189
G1 X114.127 Y112.990 E0.00014
G1 F8640.000
G1 X114.111 Y113.018 E-0.00752
G1 X114.212 Y113.442 E-0.10069
G1 E-1.29179 F2100.00000
G1 Z0.400 F10800.000
G1 X114.010 Y109.831
G1 Z0.200
G1 E1.40000 F2100.00000
G1 F1200.000
G1 X114.271 Y110.091 E0.01243
G1 X114.514 Y109.761 E0.01385
G1 X114.180 Y109.427 E0.01596
G1 X114.180 Y109.070 E0.01204
G1 X114.397 Y109.070 E0.00733
G1 X114.926 Y109.599 E0.02525
G1 X115.214 Y109.095 F10800.000
G1 F1200.000
G1 X115.673 Y108.997 E0.00284
G1 F8640.000
G1 X115.214 Y109.095 E-0.10824
G1 E-1.29176 F2100.00000
G1 Z0.400 F10800.000
G1 X118.402 Y108.976
G1 Z0.200
G1 E1.40000 F2100.00000
G1 F1200.000
G1 X118.494 Y109.226 E0.00212
G1 F8640.000
G1 X118.402 Y108.976 E-0.06156
G1 E-1.33844 F2100.00000
G1 Z0.400 F10800.000
G1 X117.995 Y99.473
G1 Z0.200
G1 E1.40000 F2100.00000
G1 F1200.000
G1 X117.435 Y99.646 E0.01838
G1 X117.019 Y99.698 E0.01313
G1 X116.444 Y99.668 E0.01805
G1 X116.036 Y99.572 E0.01313
G1 X115.498 Y99.341 E0.01838
G1 X115.011 Y98.995 E0.01871
G1 X114.608 Y98.555 E0.01871
G1 X114.307 Y98.040 E0.01871
G1 X114.124 Y97.483 E0.01838
G1 X114.065 Y97.069 E0.01313
G1 X114.086 Y96.483 E0.01838
G1 X114.232 Y95.904 E0.01871
G1 X114.491 Y95.379 E0.01838
G1 X114.740 Y95.042 E0.01313
G1 X115.165 Y94.638 E0.01838
G1 X115.675 Y94.328 E0.01871
G1 X116.238 Y94.132 E0.01869
G1 X116.806 Y94.060 E0.01798
G1 X117.237 Y94.081 E0.01351
G1 X117.809 Y94.215 E0.01842
G1 X118.348 Y94.470 E0.01871
G1 X118.814 Y94.826 E0.01838
G1 X119.097 Y95.135 E0.01313
G1 X119.411 Y95.630 E0.01838
G1 X119.617 Y96.190 E0.01871
G1 X119.701 Y96.780 E0.01871
G1 X119.659 Y97.376 E0.01871
G1 X119.492 Y97.949 E0.01871
G1 X119.214 Y98.465 E0.01838
G1 X118.954 Y98.793 E0.01313
G1 X118.515 Y99.181 E0.01838
G1 X118.047 Y99.444 E0.01683
G1 X117.862 Y99.115 F10800.000
G1 F1200.000
G1 X117.355 Y99.276 E0.01669
G1 X117.006 Y99.320 E0.01104
G1 X116.497 Y99.293 E0.01596
