; generated by PrusaSlicer 2.3.0+linux-x64 on 2022-07-12 at 18:07:59 UTC

; 

; external perimeters extrusion width = 0.45mm
; perimeters extrusion width = 0.45mm
; infill extrusion width = 0.45mm
; solid infill extrusion width = 0.45mm
; top infill extrusion width = 0.40mm
; first layer extrusion width = 0.42mm

M73 P0 R122
M73 Q0 S123
M201 X1000 Y1000 Z200 E5000 ; sets maximum accelerations, mm/sec^2
M203 X200 Y200 Z12 E120 ; sets maximum feedrates, mm/sec
M204 P1250 R1250 T1250 ; sets acceleration (P, T) and retract acceleration (R), mm/sec^2
M205 X8.00 Y8.00 Z0.40 E4.50 ; sets the jerk limits, mm/sec
M205 S0 T0 ; sets the minimum extruding and travel feed rate, mm/sec
M107
;TYPE:Custom
M862.3 P "MK3S" ; printer model check
M862.1 P0.4 ; nozzle diameter check
M115 U3.9.2 ; tell printer latest fw version
G90 ; use absolute coordinates
M83 ; extruder relative mode
M104 S230 ; set extruder temp
M140 S85 ; set bed temp
M190 S85 ; wait for bed temp
M109 S230 ; wait for extruder temp
G28 W ; home all without mesh bed level
G80 ; mesh bed leveling
G1 Y-3.0 F1000.0 ; go outside print area
G92 E0.0
G1 X60.0 E9.0 F1000.0 ; intro line
G1 X100.0 E12.5 F1000.0 ; intro line
G92 E0.0
M221 S95

; Don't change E values below. Excessive value can damage the printer.

G21 ; set units to millimeters
G90 ; use absolute coordinates
M83 ; use relative distances for extrusion
M900 K0.08 ; Filament gcode LA 1.5
M900 K45 ; Filament gcode LA 1.0
;LAYER_CHANGE
;Z:0.2
;HEIGHT:0.2
;BEFORE_LAYER_CHANGE
G92 E0.0
;0.2


G1 E-1.40000 F2100.000
G1 Z0.200 F10800.000
;AFTER_LAYER_CHANGE
;0.2
G1 Z0.400
G1 X66.230 Y53.892
M73 P0 R121
G1 Z0.200
G1 E1.40000 F2100.000
M204 S1000
;TYPE:Skirt
;WIDTH:0.42
G1 F1200.000
G1 X66.894 Y53.122 E0.03187
G1 X67.924 Y52.324 E0.04086
G1 X68.764 Y51.894 E0.02957
G1 X69.658 Y51.609 E0.02944
G1 X70.984 Y51.446 E0.04189
G1 X178.979 Y51.446 E3.38611
G1 X180.334 Y51.607 E0.04278
G1 X181.240 Y51.896 E0.02982
G1 X182.086 Y52.331 E0.02982
G1 X183.150 Y53.165 E0.04240
G1 X183.777 Y53.902 E0.03034
G1 X184.442 Y55.080 E0.04240
G1 X184.737 Y55.988 E0.02995
G1 X184.902 Y57.269 E0.04048
G1 X184.904 Y152.674 E2.99138
G1 X184.739 Y154.004 E0.04202
G1 X184.440 Y154.924 E0.03034
G1 X183.768 Y156.112 E0.04278
G1 X183.106 Y156.878 E0.03174
G1 X182.076 Y157.676 E0.04086
G1 X181.236 Y158.106 E0.02957
G1 X180.342 Y158.391 E0.02944
G1 X179.016 Y158.554 E0.04189
G1 X71.021 Y158.554 E3.38611
M73 Q0 S122
G1 X69.662 Y158.392 E0.04291
G1 X68.737 Y158.095 E0.03046
G1 X67.542 Y157.420 E0.04304
G1 X66.772 Y156.756 E0.03187
G1 X65.974 Y155.726 E0.04086
G1 X65.544 Y154.886 E0.02957
G1 X65.259 Y153.992 E0.02944
G1 X65.096 Y152.670 E0.04176
G1 X65.096 Y57.371 E2.98803
G1 X65.258 Y56.012 E0.04291
G1 X65.555 Y55.087 E0.03046
G1 X66.200 Y53.944 E0.04115
G1 X66.527 Y54.129 F10800.000
G1 F1200.000
G1 X67.157 Y53.393 E0.03037
G1 X68.133 Y52.638 E0.03868
G1 X68.908 Y52.242 E0.02729
G1 X69.733 Y51.978 E0.02717
G1 X70.991 Y51.823 E0.03975
G1 X178.979 Y51.823 E3.38587
G1 X180.260 Y51.977 E0.04047
G1 X181.097 Y52.244 E0.02753
G1 X181.878 Y52.645 E0.02753
G1 X182.888 Y53.436 E0.04022
G1 X183.465 Y54.113 E0.02789
G1 X184.096 Y55.230 E0.04022
G1 X184.369 Y56.068 E0.02765
G1 X184.525 Y57.288 E0.03856
G1 X184.527 Y152.667 E2.99054
G1 X184.370 Y153.925 E0.03977
G1 X184.094 Y154.775 E0.02800
G1 X183.458 Y155.897 E0.04046
G1 X182.843 Y156.607 E0.02943
G1 X181.867 Y157.362 E0.03868
G1 X181.092 Y157.758 E0.02729
G1 X180.267 Y158.022 E0.02717
G1 X179.009 Y158.177 E0.03975
G1 X71.021 Y158.177 E3.38587
G1 X69.736 Y158.022 E0.04059
G1 X68.882 Y157.747 E0.02812
G1 X67.753 Y157.108 E0.04070
G1 X67.043 Y156.493 E0.02943
G1 X66.288 Y155.517 E0.03868
G1 X65.892 Y154.742 E0.02729
G1 X65.628 Y153.917 E0.02717
G1 X65.473 Y152.662 E0.03963
G1 X65.473 Y57.371 E2.98779
G1 X65.628 Y56.086 E0.04059
G1 X65.903 Y55.232 E0.02812
G1 X66.498 Y54.181 E0.03786
; printing object fcm-faceplate v11.stl id:0 copy 0
;WIPE_START
G1 F8640.000
G1 X67.157 Y53.393 E-0.23724
G1 X68.133 Y52.638 E-0.28482
G1 X68.908 Y52.242 E-0.20099
G1 X69.733 Y51.978 E-0.20010
G1 X70.991 Y51.823 E-0.29270
G1 X71.486 Y51.823 E-0.11415
;WIPE_END
G1 E-0.07000 F2100.000
G1 Z0.400 F10800.000
G1 X129.122 Y66.909
G1 Z0.200
G1 E1.40000 F2100.000
;TYPE:External perimeter
G1 F1200.000
G1 X129.283 Y66.393 E0.01694
G1 X129.504 Y65.900 E0.01694
G1 X129.784 Y65.438 E0.01694
G1 X130.118 Y65.012 E0.01696
G1 X130.522 Y64.612 E0.01782
G1 X130.925 Y64.297 E0.01604
G1 X131.387 Y64.017 E0.01694
G1 X131.880 Y63.796 E0.01694
G1 X132.396 Y63.635 E0.01696
G1 X132.956 Y63.536 E0.01782
G1 X133.467 Y63.505 E0.01604
G1 X134.006 Y63.537 E0.01694
G1 X134.538 Y63.635 E0.01694
G1 X135.053 Y63.796 E0.01694
G1 X135.546 Y64.017 E0.01694
G1 X136.009 Y64.297 E0.01694
G1 X136.434 Y64.631 E0.01696
G1 X136.834 Y65.035 E0.01782
G1 X137.149 Y65.438 E0.01604
G1 X137.429 Y65.900 E0.01694
G1 X137.651 Y66.393 E0.01694
G1 X137.811 Y66.909 E0.01694
G1 X137.909 Y67.440 E0.01694
G1 X137.941 Y67.980 E0.01694
G1 X137.909 Y68.520 E0.01696
G1 X137.803 Y69.078 E0.01782
G1 X137.651 Y69.566 E0.01604
G1 X137.429 Y70.059 E0.01694
G1 X137.149 Y70.521 E0.01694
G1 X136.816 Y70.947 E0.01696
G1 X136.411 Y71.347 E0.01782
G1 X136.009 Y71.662 E0.01604
G1 X135.546 Y71.942 E0.01694
G1 X135.053 Y72.163 E0.01694
G1 X134.538 Y72.324 E0.01694
G1 X134.006 Y72.422 E0.01694
G1 X133.467 Y72.454 E0.01694
G1 X132.927 Y72.422 E0.01696
G1 X132.368 Y72.316 E0.01782
G1 X131.880 Y72.163 E0.01604
G1 X131.387 Y71.942 E0.01694
G1 X130.925 Y71.662 E0.01694
G1 X130.499 Y71.329 E0.01694
G1 X130.117 Y70.947 E0.01694
G1 X129.784 Y70.521 E0.01694
G1 X129.504 Y70.059 E0.01694
G1 X129.283 Y69.566 E0.01694
G1 X129.122 Y69.050 E0.01694
G1 X129.025 Y68.519 E0.01694
G1 X128.992 Y67.980 E0.01694
G1 X129.025 Y67.440 E0.01694
G1 X129.111 Y66.968 E0.01506
;WIPE_START
G1 F8640.000
G1 X129.283 Y66.393 E-0.13853
G1 X129.504 Y65.900 E-0.12477
G1 X129.784 Y65.438 E-0.12477
G1 X130.118 Y65.012 E-0.12492
G1 X130.522 Y64.612 E-0.13124
G1 X130.925 Y64.297 E-0.11811
G1 X131.387 Y64.017 E-0.12477
G1 X131.880 Y63.796 E-0.12477
G1 X132.396 Y63.635 E-0.12492
G1 X132.956 Y63.536 E-0.13124
G1 X133.224 Y63.519 E-0.06196
;WIPE_END
G1 E-0.07000 F2100.000
G1 Z0.400 F10800.000
G1 X120.975 Y67.440
G1 Z0.200
G1 E1.40000 F2100.000
G1 F1200.000
G1 X121.008 Y67.980 E0.01694
G1 X120.975 Y68.520 E0.01696
G1 X120.869 Y69.078 E0.01782
G1 X120.717 Y69.566 E0.01604
G1 X120.496 Y70.059 E0.01694
G1 X120.216 Y70.521 E0.01694
G1 X119.882 Y70.947 E0.01696
G1 X119.478 Y71.347 E0.01782
G1 X119.075 Y71.662 E0.01604
G1 X118.613 Y71.942 E0.01694
G1 X118.120 Y72.163 E0.01694
G1 X117.604 Y72.324 E0.01694
G1 X117.073 Y72.422 E0.01694
G1 X116.533 Y72.454 E0.01694
G1 X115.993 Y72.422 E0.01696
G1 X115.435 Y72.316 E0.01782
G1 X114.947 Y72.163 E0.01604
G1 X114.454 Y71.942 E0.01694
G1 X113.991 Y71.662 E0.01694
G1 X113.566 Y71.329 E0.01694
G1 X113.184 Y70.947 E0.01694
G1 X112.851 Y70.521 E0.01694
G1 X112.571 Y70.059 E0.01694
G1 X112.349 Y69.566 E0.01694
G1 X112.189 Y69.050 E0.01694
G1 X112.091 Y68.519 E0.01694
G1 X112.059 Y67.980 E0.01694
G1 X112.091 Y67.440 E0.01694
G1 X112.189 Y66.909 E0.01694
G1 X112.349 Y66.393 E0.01694
G1 X112.571 Y65.900 E0.01694
G1 X112.851 Y65.438 E0.01694
G1 X113.184 Y65.012 E0.01696
G1 X113.589 Y64.612 E0.01782
G1 X113.991 Y64.297 E0.01604
G1 X114.454 Y64.017 E0.01694
G1 X114.947 Y63.796 E0.01694
G1 X115.463 Y63.635 E0.01696
G1 X116.023 Y63.536 E0.01782
G1 X116.533 Y63.505 E0.01604
G1 X117.073 Y63.537 E0.01694
G1 X117.604 Y63.635 E0.01694
G1 X118.120 Y63.796 E0.01694
G1 X118.613 Y64.017 E0.01694
G1 X119.075 Y64.297 E0.01694
G1 X119.501 Y64.631 E0.01696
G1 X119.901 Y65.035 E0.01782
G1 X120.216 Y65.438 E0.01604
G1 X120.496 Y65.900 E0.01694
G1 X120.717 Y66.393 E0.01694
G1 X120.878 Y66.909 E0.01694
G1 X120.965 Y67.381 E0.01506
;WIPE_START
G1 F8640.000
G1 X121.008 Y67.980 E-0.13853
G1 X120.975 Y68.520 E-0.12492
G1 X120.869 Y69.078 E-0.13124
G1 X120.717 Y69.566 E-0.11811
G1 X120.496 Y70.059 E-0.12477
G1 X120.216 Y70.521 E-0.12477
G1 X119.882 Y70.947 E-0.12492
G1 X119.478 Y71.347 E-0.13124
G1 X119.075 Y71.662 E-0.11811
G1 X118.613 Y71.942 E-0.12477
G1 X118.342 Y72.064 E-0.06863
;WIPE_END
G1 E-0.07000 F2100.000
G1 Z0.400 F10800.000
G1 X104.075 Y67.980
G1 Z0.200
G1 E1.40000 F2100.000
G1 F1200.000
G1 X104.042 Y68.519 E0.01694
G1 X103.945 Y69.050 E0.01694
G1 X103.784 Y69.566 E0.01694
G1 X103.562 Y70.059 E0.01694
G1 X103.283 Y70.521 E0.01694
G1 X102.949 Y70.947 E0.01696
G1 X102.545 Y71.347 E0.01782
G1 X102.142 Y71.662 E0.01604
G1 X101.680 Y71.942 E0.01694
G1 X101.187 Y72.163 E0.01694
G1 X100.671 Y72.324 E0.01694
G1 X100.139 Y72.422 E0.01694
G1 X99.600 Y72.454 E0.01694
G1 X99.060 Y72.422 E0.01696
G1 X98.502 Y72.316 E0.01782
G1 X98.013 Y72.163 E0.01604
G1 X97.520 Y71.942 E0.01694
G1 X97.058 Y71.662 E0.01694
G1 X96.633 Y71.329 E0.01694
G1 X96.251 Y70.947 E0.01694
G1 X95.917 Y70.521 E0.01694
G1 X95.638 Y70.059 E0.01694
G1 X95.416 Y69.566 E0.01694
G1 X95.255 Y69.050 E0.01694
G1 X95.158 Y68.519 E0.01694
G1 X95.125 Y67.980 E0.01694
G1 X95.158 Y67.440 E0.01694
G1 X95.255 Y66.909 E0.01694
G1 X95.416 Y66.393 E0.01694
G1 X95.638 Y65.900 E0.01694
G1 X95.917 Y65.438 E0.01694
G1 X96.251 Y65.012 E0.01696
G1 X96.655 Y64.612 E0.01782
G1 X97.058 Y64.297 E0.01604
G1 X97.520 Y64.017 E0.01694
G1 X98.013 Y63.796 E0.01694
G1 X98.530 Y63.635 E0.01696
G1 X99.089 Y63.536 E0.01782
G1 X99.600 Y63.505 E0.01604
G1 X100.139 Y63.537 E0.01694
G1 X100.671 Y63.635 E0.01694
G1 X101.187 Y63.796 E0.01694
G1 X101.680 Y64.017 E0.01694
G1 X102.142 Y64.297 E0.01694
G1 X102.568 Y64.631 E0.01696
G1 X102.967 Y65.035 E0.01782
G1 X103.283 Y65.438 E0.01604
G1 X103.562 Y65.900 E0.01694
G1 X103.784 Y66.393 E0.01694
G1 X103.945 Y66.909 E0.01694
G1 X104.042 Y67.440 E0.01694
G1 X104.071 Y67.920 E0.01506
;WIPE_START
G1 F8640.000
G1 X104.042 Y68.519 E-0.13853
G1 X103.945 Y69.050 E-0.12477
G1 X103.784 Y69.566 E-0.12477
G1 X103.562 Y70.059 E-0.12477
G1 X103.283 Y70.521 E-0.12477
G1 X102.949 Y70.947 E-0.12492
G1 X102.545 Y71.347 E-0.13124
G1 X102.142 Y71.662 E-0.11811
G1 X101.680 Y71.942 E-0.12477
G1 X101.187 Y72.163 E-0.12477
G1 X100.903 Y72.252 E-0.06858
;WIPE_END
G1 E-0.07000 F2100.000
G1 Z0.400 F10800.000
G1 X78.896 Y64.105
G1 Z0.200
G1 E1.40000 F2100.000
G1 F1200.000
G1 X78.798 Y64.474 E0.01197
G1 X78.636 Y64.820 E0.01197
G1 X78.417 Y65.132 E0.01197
G1 X78.147 Y65.402 E0.01197
G1 X77.835 Y65.621 E0.01197
G1 X77.515 Y65.770 E0.01106
G1 X77.122 Y65.881 E0.01282
G1 X76.740 Y65.915 E0.01201
G1 X76.360 Y65.881 E0.01197
G1 X75.991 Y65.783 E0.01197
G1 X75.645 Y65.621 E0.01197
G1 X75.333 Y65.402 E0.01197
G1 X75.063 Y65.132 E0.01197
G1 X74.844 Y64.820 E0.01197
G1 X74.682 Y64.474 E0.01197
G1 X74.584 Y64.105 E0.01197
G1 X74.550 Y63.725 E0.01197
G1 X74.584 Y63.345 E0.01197
G1 X74.682 Y62.976 E0.01197
G1 X74.844 Y62.630 E0.01197
G1 X75.063 Y62.318 E0.01197
G1 X75.333 Y62.048 E0.01197
G1 X75.645 Y61.829 E0.01197
G1 X75.991 Y61.667 E0.01197
G1 X76.360 Y61.569 E0.01197
G1 X76.711 Y61.538 E0.01106
G1 X77.119 Y61.568 E0.01282
G1 X77.489 Y61.667 E0.01201
G1 X77.835 Y61.829 E0.01197
G1 X78.147 Y62.048 E0.01197
G1 X78.417 Y62.318 E0.01197
G1 X78.636 Y62.630 E0.01197
G1 X78.785 Y62.950 E0.01106
G1 X78.896 Y63.343 E0.01282
G1 X78.930 Y63.725 E0.01201
G1 X78.902 Y64.045 E0.01009
;WIPE_START
G1 F8640.000
G1 X78.798 Y64.474 E-0.10180
G1 X78.636 Y64.820 E-0.08813
G1 X78.417 Y65.132 E-0.08813
G1 X78.147 Y65.402 E-0.08813
G1 X77.835 Y65.621 E-0.08813
G1 X77.515 Y65.770 E-0.08143
G1 X77.122 Y65.881 E-0.09443
G1 X76.740 Y65.915 E-0.08844
G1 X76.360 Y65.881 E-0.08813
G1 X75.991 Y65.783 E-0.08813
G1 X75.645 Y65.621 E-0.08813
G1 X75.333 Y65.402 E-0.08813
G1 X75.063 Y65.132 E-0.08813
G1 X74.844 Y64.820 E-0.08813
G1 X74.693 Y64.495 E-0.08263
;WIPE_END
G1 E-0.07000 F2100.000
G1 Z0.400 F10800.000
G1 X78.475 Y75.313
G1 Z0.200
G1 E1.40000 F2100.000
G1 F1200.000
G1 X78.879 Y75.343 E0.01271
G1 X79.249 Y75.442 E0.01200
G1 X79.595 Y75.604 E0.01197
G1 X79.907 Y75.823 E0.01197
G1 X80.177 Y76.093 E0.01197
G1 X80.396 Y76.405 E0.01197
G1 X80.558 Y76.751 E0.01197
G1 X80.656 Y77.120 E0.01197
G1 X80.690 Y77.500 E0.01197
G1 X80.656 Y77.880 E0.01197
G1 X80.558 Y78.249 E0.01197
G1 X80.396 Y78.595 E0.01197
G1 X80.177 Y78.907 E0.01197
G1 X79.907 Y79.177 E0.01197
G1 X79.595 Y79.396 E0.01197
G1 X79.249 Y79.558 E0.01197
G1 X78.880 Y79.656 E0.01197
G1 X78.500 Y79.690 E0.01197
G1 X78.120 Y79.656 E0.01197
G1 X77.751 Y79.558 E0.01197
G1 X77.405 Y79.396 E0.01197
G1 X77.093 Y79.177 E0.01197
G1 X76.841 Y78.925 E0.01117
G1 X76.604 Y78.596 E0.01271
G1 X76.442 Y78.249 E0.01200
G1 X76.344 Y77.880 E0.01197
G1 X76.310 Y77.500 E0.01197
G1 X76.344 Y77.120 E0.01197
G1 X76.442 Y76.751 E0.01197
G1 X76.604 Y76.405 E0.01197
G1 X76.823 Y76.093 E0.01197
G1 X77.093 Y75.823 E0.01197
G1 X77.405 Y75.604 E0.01197
G1 X77.751 Y75.442 E0.01197
G1 X78.120 Y75.344 E0.01197
G1 X78.415 Y75.318 E0.00929
;WIPE_START
G1 F8640.000
G1 X78.879 Y75.343 E-0.10731
G1 X79.249 Y75.442 E-0.08840
G1 X79.595 Y75.604 E-0.08813
G1 X79.907 Y75.823 E-0.08813
G1 X80.177 Y76.093 E-0.08813
G1 X80.396 Y76.405 E-0.08813
G1 X80.558 Y76.751 E-0.08813
G1 X80.656 Y77.120 E-0.08813
G1 X80.690 Y77.500 E-0.08813
G1 X80.656 Y77.880 E-0.08813
G1 X80.558 Y78.249 E-0.08813
G1 X80.396 Y78.595 E-0.08813
G1 X80.177 Y78.907 E-0.08813
G1 X79.907 Y79.177 E-0.08813
G1 X79.635 Y79.368 E-0.07675
;WIPE_END
G1 E-0.07000 F2100.000
G1 Z0.400 F10800.000
G1 X75.340 Y84.590
G1 Z0.200
G1 E1.40000 F2100.000
G1 F1200.000
G1 X174.660 Y84.590 E3.11411
G1 X174.660 Y125.410 E1.27988
M73 P0 R120
G1 X75.340 Y125.410 E3.11411
G1 X75.340 Y84.650 E1.27800
;WIPE_START
M73 P1 R120
M73 Q1 S122
G1 F8640.000
G1 X81.100 Y84.647 E-1.33000
;WIPE_END
G1 E-0.07000 F2100.000
G1 Z0.400 F10800.000
G1 X78.475 Y130.313
G1 Z0.200
G1 E1.40000 F2100.000
G1 F1200.000
G1 X78.879 Y130.343 E0.01271
G1 X79.249 Y130.442 E0.01200
G1 X79.595 Y130.604 E0.01197
G1 X79.907 Y130.823 E0.01197
G1 X80.177 Y131.093 E0.01197
G1 X80.396 Y131.405 E0.01197
G1 X80.547 Y131.728 E0.01117
G1 X80.656 Y132.119 E0.01271
G1 X80.690 Y132.500 E0.01200
G1 X80.656 Y132.880 E0.01197
G1 X80.558 Y133.249 E0.01197
G1 X80.396 Y133.595 E0.01197
G1 X80.177 Y133.907 E0.01197
G1 X79.907 Y134.177 E0.01197
G1 X79.595 Y134.396 E0.01197
G1 X79.249 Y134.558 E0.01197
G1 X78.880 Y134.656 E0.01197
G1 X78.500 Y134.690 E0.01197
G1 X78.120 Y134.656 E0.01197
G1 X77.751 Y134.558 E0.01197
G1 X77.405 Y134.396 E0.01197
G1 X77.093 Y134.177 E0.01197
G1 X76.823 Y133.907 E0.01197
G1 X76.604 Y133.595 E0.01197
G1 X76.442 Y133.249 E0.01197
G1 X76.344 Y132.880 E0.01197
G1 X76.310 Y132.500 E0.01197
G1 X76.344 Y132.120 E0.01197
G1 X76.442 Y131.751 E0.01197
G1 X76.604 Y131.405 E0.01197
G1 X76.823 Y131.093 E0.01197
G1 X77.093 Y130.823 E0.01197
G1 X77.405 Y130.604 E0.01197
G1 X77.751 Y130.442 E0.01197
G1 X78.120 Y130.344 E0.01197
G1 X78.415 Y130.318 E0.00929
;WIPE_START
G1 F8640.000
G1 X78.879 Y130.343 E-0.10731
G1 X79.249 Y130.442 E-0.08841
G1 X79.595 Y130.604 E-0.08813
G1 X79.907 Y130.823 E-0.08813
G1 X80.177 Y131.093 E-0.08813
G1 X80.396 Y131.405 E-0.08813
G1 X80.547 Y131.728 E-0.08229
G1 X80.656 Y132.119 E-0.09361
G1 X80.690 Y132.500 E-0.08840
G1 X80.656 Y132.880 E-0.08813
G1 X80.558 Y133.249 E-0.08813
G1 X80.396 Y133.595 E-0.08813
G1 X80.177 Y133.907 E-0.08813
G1 X79.907 Y134.177 E-0.08813
G1 X79.635 Y134.368 E-0.07683
;WIPE_END
G1 E-0.07000 F2100.000
G1 Z0.400 F10800.000
G1 X77.119 Y144.118
G1 Z0.200
G1 E1.40000 F2100.000
G1 F1200.000
G1 X77.489 Y144.217 E0.01201
G1 X77.835 Y144.379 E0.01197
G1 X78.147 Y144.598 E0.01197
G1 X78.417 Y144.868 E0.01197
G1 X78.636 Y145.180 E0.01197
G1 X78.785 Y145.500 E0.01106
G1 X78.896 Y145.893 E0.01282
G1 X78.930 Y146.275 E0.01201
G1 X78.896 Y146.655 E0.01197
G1 X78.798 Y147.024 E0.01197
G1 X78.636 Y147.370 E0.01197
G1 X78.417 Y147.682 E0.01197
G1 X78.147 Y147.952 E0.01197
G1 X77.835 Y148.171 E0.01197
G1 X77.489 Y148.333 E0.01197
G1 X77.120 Y148.431 E0.01197
G1 X76.740 Y148.465 E0.01197
G1 X76.360 Y148.431 E0.01197
G1 X75.991 Y148.333 E0.01197
G1 X75.645 Y148.171 E0.01197
G1 X75.333 Y147.952 E0.01197
G1 X75.063 Y147.682 E0.01197
G1 X74.844 Y147.370 E0.01197
G1 X74.695 Y147.050 E0.01106
