; generated by PrusaSlicer 2.2.0+linux-x64 on 2020-11-14 at 14:00:33 UTC

; 

; external perimeters extrusion width = 0.45mm
; perimeters extrusion width = 0.45mm
; infill extrusion width = 0.45mm
; solid infill extrusion width = 0.45mm
; top infill extrusion width = 0.40mm
; first layer extrusion width = 0.42mm

M73 P0 R74
M73 Q0 S74
M201 X1000 Y1000 Z200 E5000 ; sets maximum accelerations, mm/sec^2
M203 X200 Y200 Z12 E120 ; sets maximum feedrates, mm/sec
M204 P1250 R1250 T1250 ; sets acceleration (P, T) and retract acceleration (R), mm/sec^2
M205 X8.00 Y8.00 Z0.40 E4.50 ; sets the jerk limits, mm/sec
M205 S0 T0 ; sets the minimum extruding and travel feed rate, mm/sec
M107
M862.3 P "MK3S" ; printer model check
M862.1 P0.4 ; nozzle diameter check
M115 U3.9.0 ; tell printer latest fw version
G90 ; use absolute coordinates
M83 ; extruder relative mode
M104 S240 ; set extruder temp
M140 S85 ; set bed temp
M190 S85 ; wait for bed temp
M109 S240 ; wait for extruder temp
G28 W ; home all without mesh bed level
G80 ; mesh bed leveling
G1 Y-3.0 F1000.0 ; go outside print area
G92 E0.0
G1 X60.0 E9.0 F1000.0 ; intro line
M73 Q0 S74
M73 P0 R74
G1 X100.0 E12.5 F1000.0 ; intro line
G92 E0.0
M221 S95
G21 ; set units to millimeters
G90 ; use absolute coordinates
M83 ; use relative distances for extrusion
M900 K0.12 ; Filament gcode LA 1.5
M900 K45 ; Filament gcode LA 1.0
;BEFORE_LAYER_CHANGE
G92 E0.0
;0.2


G1 E-1.40000 F2100.00000
G1 Z0.200 F10800.000
;AFTER_LAYER_CHANGE
;0.2
G1 Z0.400
G1 X93.372 Y79.614
G1 Z0.200
G1 E1.40000 F2100.00000
M204 S1000
G1 F1200.000
G1 X93.917 Y78.832 E0.02989
G1 X94.662 Y78.352 E0.02778
G1 X95.527 Y78.178 E0.02767
G1 X149.449 Y78.178 E1.69067
G1 X150.340 Y78.353 E0.02849
G1 X151.101 Y78.850 E0.02849
G1 X151.620 Y79.596 E0.02849
G1 X151.821 Y80.482 E0.02849
G1 X151.822 Y129.479 E1.53629
G1 X151.622 Y130.400 E0.02954
G1 X151.083 Y131.168 E0.02942
G1 X150.338 Y131.648 E0.02778
G1 X149.473 Y131.822 E0.02767
G1 X95.551 Y131.822 E1.69067
G1 X94.614 Y131.628 E0.03001
G1 X93.832 Y131.083 E0.02989
G1 X93.353 Y130.341 E0.02767
G1 X93.178 Y129.477 E0.02767
G1 X93.178 Y80.551 E1.53402
G1 X93.360 Y79.673 E0.02813
G1 F8640.000
G1 X93.917 Y78.832 E-0.23293
G1 X94.662 Y78.352 E-0.20460
G1 X95.527 Y78.178 E-0.20374
G1 X98.510 Y78.178 E-0.68873
G1 E-0.07000 F2100.00000
G1 Z0.400 F10800.000
G1 X112.610 Y109.583
G1 Z0.200
G1 E1.40000 F2100.00000
G1 F1200.000
G1 X113.120 Y109.273 E0.01871
G1 X113.683 Y109.077 E0.01869
G1 X114.251 Y109.005 E0.01798
G1 X114.682 Y109.026 E0.01351
G1 X115.254 Y109.160 E0.01842
G1 X115.793 Y109.415 E0.01871
G1 X116.259 Y109.771 E0.01838
G1 X116.542 Y110.080 E0.01313
G1 X116.855 Y110.575 E0.01838
G1 X117.062 Y111.135 E0.01871
G1 X117.146 Y111.725 E0.01871
G1 X117.104 Y112.321 E0.01871
G1 X116.937 Y112.894 E0.01871
G1 X116.659 Y113.410 E0.01838
G1 X116.399 Y113.738 E0.01313
G1 X115.960 Y114.126 E0.01838
G1 X115.440 Y114.418 E0.01871
G1 X114.880 Y114.591 E0.01838
G1 X114.464 Y114.643 E0.01313
G1 X113.879 Y114.612 E0.01838
G1 X113.303 Y114.456 E0.01871
G1 X112.782 Y114.187 E0.01838
G1 X112.449 Y113.932 E0.01313
G1 X112.053 Y113.500 E0.01838
G1 X111.752 Y112.985 E0.01871
G1 X111.569 Y112.428 E0.01838
G1 X111.510 Y112.014 E0.01313
G1 X111.531 Y111.428 E0.01838
G1 X111.677 Y110.849 E0.01871
G1 X111.936 Y110.324 E0.01838
G1 X112.185 Y109.987 E0.01313
G1 X112.567 Y109.625 E0.01650
G1 X112.826 Y109.898 F10800.000
G1 F1200.000
G1 X113.282 Y109.616 E0.01681
G1 X113.769 Y109.446 E0.01619
G1 X114.266 Y109.383 E0.01570
G1 X114.629 Y109.401 E0.01141
G1 X115.129 Y109.518 E0.01609
G1 X115.596 Y109.738 E0.01619
G1 X116.003 Y110.050 E0.01608
G1 X116.241 Y110.310 E0.01104
G1 X116.516 Y110.743 E0.01608
G1 X116.694 Y111.227 E0.01619
G1 X116.767 Y111.739 E0.01619
G1 X116.730 Y112.254 E0.01619
G1 X116.586 Y112.750 E0.01619
G1 X116.343 Y113.201 E0.01608
G1 X116.124 Y113.477 E0.01104
G1 X115.740 Y113.817 E0.01608
G1 X115.290 Y114.070 E0.01619
G1 X114.800 Y114.221 E0.01608
G1 X114.451 Y114.265 E0.01104
G1 X113.939 Y114.238 E0.01608
G1 X113.440 Y114.102 E0.01619
G1 X112.984 Y113.867 E0.01608
G1 X112.705 Y113.653 E0.01104
G1 X112.359 Y113.275 E0.01608
G1 X112.098 Y112.829 E0.01619
G1 X111.937 Y112.342 E0.01608
G1 X111.888 Y111.994 E0.01104
G1 X111.906 Y111.481 E0.01608
G1 X112.032 Y110.980 E0.01619
G1 X112.259 Y110.521 E0.01608
G1 X112.468 Y110.237 E0.01104
G1 X112.782 Y109.939 E0.01357
G1 X112.777 Y109.501 F10800.000
G1 F8640.000
G1 X113.282 Y109.616 E-0.13736
G1 X113.769 Y109.446 E-0.11922
G1 X114.266 Y109.383 E-0.11560
G1 X114.629 Y109.401 E-0.08404
G1 X115.129 Y109.518 E-0.11849
G1 X115.596 Y109.738 E-0.11926
G1 X116.003 Y110.050 E-0.11840
G1 X116.241 Y110.310 E-0.08129
G1 X116.516 Y110.743 E-0.11840
G1 X116.694 Y111.227 E-0.11926
G1 X116.767 Y111.739 E-0.11926
G1 X116.743 Y112.082 E-0.07942
G1 E-0.07000 F2100.00000
G1 Z0.400 F10800.000
G1 X111.342 Y108.842
G1 Z0.200
G1 E1.40000 F2100.00000
G1 F1200.000
G1 X118.658 Y108.842 E0.22938
G1 X118.658 Y116.158 E0.22938
G1 X111.342 Y116.158 E0.22938
G1 X111.342 Y108.902 E0.22750
G1 X110.965 Y108.465 F10800.000
G1 F1200.000
G1 X119.035 Y108.465 E0.25303
G1 X119.035 Y116.535 E0.25303
G1 X110.965 Y116.535 E0.25303
G1 X110.965 Y108.525 E0.25115
G1 X111.351 Y108.569 F10800.000
G1 F8640.000
G1 X116.725 Y108.482 E-1.33000
G1 E-0.07000 F2100.00000
G1 Z0.400 F10800.000
G1 X111.455 Y109.886
G1 Z0.200
G1 E1.40000 F2100.00000
G1 F1200.000
G1 X111.716 Y110.146 E0.01243
G1 X111.959 Y109.816 E0.01385
G1 X111.625 Y109.482 E0.01596
G1 X111.625 Y109.125 E0.01204
G1 X111.842 Y109.125 E0.00733
G1 X112.371 Y109.654 E0.02525
G1 X112.659 Y109.150 F10800.000
G1 F1200.000
G1 X113.118 Y109.052 E0.00284
G1 F8640.000
G1 X112.659 Y109.150 E-0.10826
G1 E-1.29174 F2100.00000
G1 Z0.400 F10800.000
G1 X115.847 Y109.031
G1 Z0.200
G1 E1.40000 F2100.00000
G1 F1200.000
G1 X115.939 Y109.281 E0.00212
G1 F8640.000
G1 X115.847 Y109.031 E-0.06156
G1 E-1.33844 F2100.00000
G1 Z0.400 F10800.000
G1 X118.545 Y109.740
G1 Z0.200
G1 E1.40000 F2100.00000
G1 F1200.000
G1 X117.930 Y109.125 E0.02804
G1 X117.382 Y109.125 E0.01767
G1 X118.375 Y110.118 E0.04530
G1 X118.375 Y110.667 E0.01767
G1 X116.833 Y109.125 E0.07029
G1 X116.285 Y109.125 E0.01767
G1 X118.375 Y111.215 E0.09529
G1 X118.375 Y111.763 E0.01767
G1 X117.139 Y110.528 E0.05633
G1 X117.338 Y111.065 E0.01847
G1 X117.372 Y111.308 E0.00792
G1 X118.375 Y112.312 E0.04573
G1 X118.375 Y112.860 E0.01767
G1 X117.417 Y111.901 E0.04369
G1 X117.373 Y112.406 E0.01633
G1 X118.375 Y113.408 E0.04567
G1 X118.375 Y113.956 E0.01767
G1 X117.250 Y112.831 E0.05129
G1 X117.201 Y113.001 E0.00571
G1 X117.085 Y113.215 E0.00782
G1 X118.375 Y114.505 E0.05879
G1 X118.375 Y115.053 E0.01767
G1 X116.893 Y113.570 E0.06758
G1 X116.650 Y113.876 E0.01258
G1 X118.375 Y115.601 E0.07864
G1 X118.375 Y115.875 E0.00883
G1 X118.101 Y115.875 E0.00884
G1 X116.368 Y114.142 E0.07899
G1 X116.067 Y114.390 E0.01256
G1 X117.553 Y115.875 E0.06771
G1 X117.004 Y115.875 E0.01767
G1 X115.716 Y114.587 E0.05872
G1 X115.552 Y114.679 E0.00608
G1 X115.329 Y114.748 E0.00751
G1 X116.456 Y115.875 E0.05137
G1 X115.908 Y115.875 E0.01767
G1 X114.906 Y114.873 E0.04568
G1 X114.408 Y114.923 E0.01614
G1 X115.360 Y115.875 E0.04340
G1 X114.811 Y115.875 E0.01767
G1 X113.827 Y114.891 E0.04486
G1 X113.200 Y114.721 E0.02096
G1 X113.012 Y114.624 E0.00681
G1 X114.263 Y115.875 E0.05703
G1 X113.715 Y115.875 E0.01767
G1 X111.625 Y113.795 E0.09505
G1 X111.625 Y114.333 E0.01734
G1 X113.167 Y115.875 E0.07029
G1 X112.618 Y115.875 E0.01767
G1 X111.625 Y114.882 E0.04529
G1 X111.625 Y115.430 E0.01767
G1 X112.240 Y116.045 E0.02803
G1 F8640.000
G1 X111.625 Y115.430 E-0.20081
G1 X111.625 Y114.882 E-0.12659
G1 X112.618 Y115.875 E-0.32443
G1 X113.167 Y115.875 E-0.12659
G1 X111.625 Y114.333 E-0.50346
G1 X111.625 Y114.125 E-0.04811
G1 E-0.07000 F2100.00000
G1 Z0.400 F10800.000
G1 X111.656 Y113.497
G1 Z0.200
G1 E1.40000 F2100.00000
G1 F1200.000
G1 X111.556 Y113.073 E0.00189
G1 X111.572 Y113.045 E0.00014
G1 F8640.000
G1 X111.556 Y113.073 E-0.00753
G1 X111.656 Y113.497 E-0.10071
G1 E-1.29176 F2100.00000
G1 Z0.400 F10800.000
G1 X113.683 Y121.577
G1 Z0.200
G1 E1.40000 F2100.00000
G1 F1200.000
G1 X114.251 Y121.505 E0.01798
G1 X114.682 Y121.526 E0.01351
G1 X115.254 Y121.660 E0.01842
G1 X115.793 Y121.915 E0.01871
G1 X116.259 Y122.271 E0.01838
G1 X116.542 Y122.580 E0.01313
G1 X116.855 Y123.075 E0.01838
G1 X117.062 Y123.635 E0.01871
G1 X117.146 Y124.225 E0.01871
G1 X117.104 Y124.821 E0.01871
G1 X116.937 Y125.394 E0.01871
G1 X116.659 Y125.910 E0.01838
G1 X116.399 Y126.238 E0.01313
G1 X115.960 Y126.626 E0.01838
G1 X115.440 Y126.918 E0.01871
G1 X114.880 Y127.091 E0.01838
G1 X114.464 Y127.143 E0.01313
G1 X113.879 Y127.112 E0.01838
G1 X113.303 Y126.956 E0.01871
G1 X112.782 Y126.687 E0.01838
G1 X112.449 Y126.432 E0.01313
G1 X112.053 Y126.000 E0.01838
G1 X111.752 Y125.485 E0.01871
G1 X111.569 Y124.928 E0.01838
G1 X111.510 Y124.514 E0.01313
G1 X111.531 Y123.928 E0.01838
G1 X111.677 Y123.349 E0.01871
G1 X111.936 Y122.824 E0.01838
G1 X112.185 Y122.487 E0.01313
G1 X112.610 Y122.083 E0.01838
G1 X113.120 Y121.773 E0.01871
G1 X113.626 Y121.596 E0.01681
G1 X113.750 Y121.952 F10800.000
G1 F1200.000
G1 X114.266 Y121.883 E0.01632
G1 X114.629 Y121.901 E0.01141
G1 X115.129 Y122.018 E0.01609
G1 X115.596 Y122.238 E0.01619
G1 X116.003 Y122.550 E0.01608
G1 X116.241 Y122.810 E0.01104
G1 X116.516 Y123.243 E0.01608
G1 X116.694 Y123.727 E0.01619
G1 X116.767 Y124.239 E0.01619
G1 X116.730 Y124.754 E0.01619
G1 X116.586 Y125.250 E0.01619
G1 X116.343 Y125.701 E0.01608
G1 X116.124 Y125.977 E0.01104
G1 X115.740 Y126.317 E0.01608
G1 X115.290 Y126.570 E0.01619
G1 X114.800 Y126.721 E0.01608
G1 X114.451 Y126.765 E0.01104
G1 X113.939 Y126.738 E0.01608
G1 X113.440 Y126.602 E0.01619
G1 X112.984 Y126.367 E0.01608
G1 X112.705 Y126.153 E0.01104
G1 X112.359 Y125.775 E0.01608
G1 X112.098 Y125.329 E0.01619
G1 X111.937 Y124.842 E0.01608
G1 X111.888 Y124.494 E0.01104
G1 X111.906 Y123.981 E0.01608
G1 X112.032 Y123.480 E0.01619
G1 X112.259 Y123.021 E0.01608
G1 X112.468 Y122.737 E0.01104
G1 X112.840 Y122.384 E0.01608
G1 X113.282 Y122.116 E0.01619
G1 X113.693 Y121.972 E0.01367
G1 X113.863 Y121.569 F10800.000
G1 F8640.000
G1 X114.266 Y121.883 E-0.13378
G1 X114.629 Y121.901 E-0.08404
G1 X115.129 Y122.018 E-0.11849
G1 X115.596 Y122.238 E-0.11926
G1 X116.003 Y122.550 E-0.11840
G1 X116.241 Y122.810 E-0.08129
G1 X116.516 Y123.243 E-0.11840
G1 X116.694 Y123.727 E-0.11926
G1 X116.767 Y124.239 E-0.11926
G1 X116.730 Y124.754 E-0.11926
G1 X116.586 Y125.250 E-0.11926
G1 X116.424 Y125.552 E-0.07929
G1 E-0.07000 F2100.00000
G1 Z0.400 F10800.000
G1 X111.342 Y121.342
G1 Z0.200
G1 E1.40000 F2100.00000
G1 F1200.000
G1 X118.658 Y121.342 E0.22938
G1 X118.658 Y128.658 E0.22938
G1 X111.342 Y128.658 E0.22938
G1 X111.342 Y121.402 E0.22750
G1 X110.965 Y120.965 F10800.000
G1 F1200.000
G1 X119.035 Y120.965 E0.25303
G1 X119.035 Y129.035 E0.25303
G1 X110.965 Y129.035 E0.25303
G1 X110.965 Y121.025 E0.25115
G1 X111.351 Y121.069 F10800.000
G1 F8640.000
G1 X116.725 Y120.982 E-1.33000
G1 E-0.07000 F2100.00000
G1 Z0.400 F10800.000
G1 X111.455 Y122.386
G1 Z0.200
G1 E1.40000 F2100.00000
G1 F1200.000
G1 X111.716 Y122.646 E0.01243
G1 X111.959 Y122.316 E0.01385
G1 X111.625 Y121.982 E0.01596
G1 X111.625 Y121.625 E0.01204
G1 X111.842 Y121.625 E0.00733
G1 X112.371 Y122.154 E0.02525
G1 X112.659 Y121.650 F10800.000
G1 F1200.000
G1 X113.118 Y121.552 E0.00284
G1 F8640.000
G1 X112.659 Y121.650 E-0.10826
G1 E-1.29174 F2100.00000
G1 Z0.400 F10800.000
G1 X115.847 Y121.531
G1 Z0.200
G1 E1.40000 F2100.00000
G1 F1200.000
G1 X115.939 Y121.781 E0.00212
G1 F8640.000
G1 X115.847 Y121.531 E-0.06156
G1 E-1.33844 F2100.00000
G1 Z0.400 F10800.000
G1 X118.545 Y122.240
G1 Z0.200
G1 E1.40000 F2100.00000
G1 F1200.000
G1 X117.930 Y121.625 E0.02804
G1 X117.382 Y121.625 E0.01767
G1 X118.375 Y122.618 E0.04530
G1 X118.375 Y123.167 E0.01767
G1 X116.833 Y121.625 E0.07029
G1 X116.285 Y121.625 E0.01767
G1 X118.375 Y123.715 E0.09529
G1 X118.375 Y124.263 E0.01767
G1 X117.139 Y123.028 E0.05633
G1 X117.338 Y123.565 E0.01847
G1 X117.372 Y123.808 E0.00792
G1 X118.375 Y124.812 E0.04573
G1 X118.375 Y125.360 E0.01767
G1 X117.417 Y124.401 E0.04369
G1 X117.373 Y124.906 E0.01633
G1 X118.375 Y125.908 E0.04567
G1 X118.375 Y126.456 E0.01767
G1 X117.250 Y125.331 E0.05129
G1 X117.201 Y125.501 E0.00571
G1 X117.085 Y125.715 E0.00782
G1 X118.375 Y127.005 E0.05879
G1 X118.375 Y127.553 E0.01767
G1 X116.893 Y126.070 E0.06758
G1 X116.650 Y126.376 E0.01258
G1 X118.375 Y128.101 E0.07864
G1 X118.375 Y128.375 E0.00883
G1 X118.101 Y128.375 E0.00884
G1 X116.368 Y126.642 E0.07899
G1 X116.067 Y126.890 E0.01256
G1 X117.553 Y128.375 E0.06771
G1 X117.004 Y128.375 E0.01767
G1 X115.716 Y127.087 E0.05872
G1 X115.552 Y127.179 E0.00608
G1 X115.329 Y127.248 E0.00751
G1 X116.456 Y128.375 E0.05137
G1 X115.908 Y128.375 E0.01767
G1 X114.906 Y127.373 E0.04568
G1 X114.408 Y127.423 E0.01614
G1 X115.360 Y128.375 E0.04340
G1 X114.811 Y128.375 E0.01767
G1 X113.827 Y127.391 E0.04486
G1 X113.200 Y127.221 E0.02096
G1 X113.012 Y127.124 E0.00681
G1 X114.263 Y128.375 E0.05703
G1 X113.715 Y128.375 E0.01767
G1 X111.625 Y126.295 E0.09505
G1 X111.625 Y126.833 E0.01734
G1 X113.167 Y128.375 E0.07029
G1 X112.618 Y128.375 E0.01767
G1 X111.625 Y127.382 E0.04529
G1 X111.625 Y127.930 E0.01767
G1 X112.240 Y128.545 E0.02803
G1 F8640.000
G1 X111.625 Y127.930 E-0.20081
G1 X111.625 Y127.382 E-0.12659
G1 X112.618 Y128.375 E-0.32443
G1 X113.167 Y128.375 E-0.12659
G1 X111.625 Y126.833 E-0.50346
G1 X111.625 Y126.625 E-0.04811
G1 E-0.07000 F2100.00000
G1 Z0.400 F10800.000
G1 X111.656 Y125.997
G1 Z0.200
G1 E1.40000 F2100.00000
G1 F1200.000
G1 X111.556 Y125.573 E0.00189
G1 X111.572 Y125.545 E0.00014
G1 F8640.000
G1 X111.556 Y125.573 E-0.00753
G1 X111.656 Y125.997 E-0.10071
G1 E-1.29176 F2100.00000
G1 Z0.400 F10800.000
G1 X126.531 Y123.928
G1 Z0.200
G1 E1.40000 F2100.00000
G1 F1200.000
G1 X126.677 Y123.349 E0.01871
G1 X126.936 Y122.824 E0.01838
G1 X127.185 Y122.487 E0.01313
G1 X127.610 Y122.083 E0.01838
G1 X128.120 Y121.773 E0.01871
G1 X128.683 Y121.577 E0.01869
G1 X129.251 Y121.505 E0.01798
G1 X129.682 Y121.526 E0.01351
G1 X130.254 Y121.660 E0.01842
G1 X130.793 Y121.915 E0.01871
G1 X131.259 Y122.271 E0.01838
G1 X131.542 Y122.580 E0.01313
G1 X131.855 Y123.075 E0.01838
G1 X132.062 Y123.635 E0.01871
G1 X132.146 Y124.225 E0.01871
G1 X132.104 Y124.821 E0.01871
G1 X131.937 Y125.394 E0.01871
G1 X131.659 Y125.910 E0.01838
G1 X131.399 Y126.238 E0.01313
G1 X130.960 Y126.626 E0.01838
G1 X130.440 Y126.918 E0.01871
G1 X129.880 Y127.091 E0.01838
G1 X129.464 Y127.143 E0.01313
G1 X128.879 Y127.112 E0.01838
G1 X128.303 Y126.956 E0.01871
G1 X127.782 Y126.687 E0.01838
G1 X127.449 Y126.432 E0.01313
G1 X127.053 Y126.000 E0.01838
G1 X126.752 Y125.485 E0.01871
G1 X126.569 Y124.928 E0.01838
G1 X126.510 Y124.514 E0.01313
G1 X126.528 Y123.988 E0.01650
G1 X126.905 Y124.001 F10800.000
G1 F1200.000
G1 X127.032 Y123.480 E0.01681
G1 X127.259 Y123.021 E0.01608
G1 X127.468 Y122.737 E0.01104
G1 X127.840 Y122.384 E0.01608
G1 X128.282 Y122.116 E0.01619
G1 X128.769 Y121.946 E0.01619
G1 X129.266 Y121.883 E0.01570
G1 X129.629 Y121.901 E0.01141
G1 X130.129 Y122.018 E0.01609
G1 X130.596 Y122.238 E0.01619
G1 X131.003 Y122.550 E0.01608
G1 X131.241 Y122.810 E0.01104
G1 X131.516 Y123.243 E0.01608
G1 X131.694 Y123.727 E0.01619
G1 X131.767 Y124.239 E0.01619
G1 X131.730 Y124.754 E0.01619
G1 X131.586 Y125.250 E0.01619
G1 X131.343 Y125.701 E0.01608
G1 X131.124 Y125.977 E0.01104
G1 X130.740 Y126.317 E0.01608
G1 X130.290 Y126.570 E0.01619
G1 X129.800 Y126.721 E0.01608
G1 X129.451 Y126.765 E0.01104
G1 X128.939 Y126.738 E0.01608
G1 X128.440 Y126.602 E0.01619
G1 X127.984 Y126.367 E0.01608
G1 X127.705 Y126.153 E0.01104
G1 X127.359 Y125.775 E0.01608
G1 X127.098 Y125.329 E0.01619
G1 X126.937 Y124.842 E0.01608
G1 X126.888 Y124.494 E0.01104
G1 X126.903 Y124.061 E0.01357
G1 X126.592 Y123.753 F10800.000
G1 F8640.000
G1 X127.032 Y123.480 E-0.13736
G1 X127.259 Y123.021 E-0.11840
G1 X127.468 Y122.737 E-0.08129
G1 X127.840 Y122.384 E-0.11840
G1 X128.282 Y122.116 E-0.11926
G1 X128.769 Y121.946 E-0.11922
