; generated by PrusaSlicer 2.2.0+linux-x64 on 2020-05-27 at 02:33:08 UTC

; 

; external perimeters extrusion width = 0.45mm
; perimeters extrusion width = 0.45mm
; infill extrusion width = 0.45mm
; solid infill extrusion width = 0.45mm
; top infill extrusion width = 0.40mm
; first layer extrusion width = 0.42mm

M73 P0 R87
M73 Q0 S87
M201 X1000 Y1000 Z1000 E5000 ; sets maximum accelerations, mm/sec^2
M203 X200 Y200 Z12 E120 ; sets maximum feedrates, mm/sec
M204 P1250 R1250 T1250 ; sets acceleration (P, T) and retract acceleration (R), mm/sec^2
M205 X8.00 Y8.00 Z0.40 E4.50 ; sets the jerk limits, mm/sec
M205 S0 T0 ; sets the minimum extruding and travel feed rate, mm/sec
M107
M862.3 P "MK3S" ; printer model check
M862.1 P0.4 ; nozzle diameter check
M115 U3.8.1 ; tell printer latest fw version
G90 ; use absolute coordinates
M83 ; extruder relative mode
M104 S215 ; set extruder temp
M140 S60 ; set bed temp
M190 S60 ; wait for bed temp
M109 S215 ; wait for extruder temp
G28 W ; home all without mesh bed level
G80 ; mesh bed leveling
G1 Y-3.0 F1000.0 ; go outside print area
G92 E0.0
G1 X60.0 E9.0 F1000.0 ; intro line
M73 Q0 S87
M73 P0 R87
G1 X100.0 E12.5 F1000.0 ; intro line
G92 E0.0
M221 S95
G21 ; set units to millimeters
G90 ; use absolute coordinates
M83 ; use relative distances for extrusion
M900 K30 ; Filament gcode
;BEFORE_LAYER_CHANGE
G92 E0.0
;0.2


G1 E-0.80000 F2100.00000
G1 Z0.600 F10800.000
;AFTER_LAYER_CHANGE
;0.2
G1 X66.542 Y54.103
G1 Z0.200
G1 E0.80000 F2100.00000
M204 S1000
G1 F1200.000
G1 X67.157 Y53.393 E0.02943
G1 X68.133 Y52.638 E0.03868
G1 X68.908 Y52.242 E0.02729
G1 X69.733 Y51.978 E0.02717
G1 X70.991 Y51.823 E0.03975
G1 X178.979 Y51.823 E3.38587
G1 X180.260 Y51.977 E0.04047
G1 X181.097 Y52.244 E0.02753
G1 X181.878 Y52.645 E0.02753
G1 X182.888 Y53.436 E0.04022
G1 X183.465 Y54.113 E0.02789
G1 X184.096 Y55.230 E0.04022
G1 X184.369 Y56.068 E0.02765
G1 X184.525 Y57.288 E0.03856
G1 X184.527 Y152.667 E2.99054
G1 X184.370 Y153.925 E0.03977
G1 X184.094 Y154.775 E0.02800
G1 X183.458 Y155.897 E0.04046
G1 X182.843 Y156.607 E0.02943
G1 X181.867 Y157.362 E0.03868
G1 X181.092 Y157.758 E0.02729
G1 X180.267 Y158.022 E0.02717
G1 X179.009 Y158.177 E0.03975
G1 X71.021 Y158.177 E3.38587
G1 X69.736 Y158.022 E0.04059
G1 X68.882 Y157.747 E0.02812
G1 X67.753 Y157.108 E0.04070
G1 X67.043 Y156.493 E0.02943
G1 X66.288 Y155.517 E0.03868
G1 X65.892 Y154.742 E0.02729
G1 X65.628 Y153.917 E0.02717
G1 X65.473 Y152.662 E0.03963
G1 X65.473 Y57.371 E2.98779
G1 X65.628 Y56.086 E0.04059
G1 X65.903 Y55.232 E0.02812
G1 X66.513 Y54.155 E0.03881
G1 F8640.000
G1 X67.157 Y53.393 E-0.23035
G1 X68.133 Y52.638 E-0.28482
G1 X68.908 Y52.242 E-0.20099
G1 X69.089 Y52.184 E-0.04384
G1 E-0.04000 F2100.00000
G1 Z0.800 F10800.000
G1 X129.012 Y66.838
G1 Z0.200
G1 E0.80000 F2100.00000
G1 F1200.000
G1 X129.191 Y66.287 E0.01817
G1 X129.437 Y65.764 E0.01811
G1 X129.746 Y65.276 E0.01811
G1 X130.095 Y64.855 E0.01716
G1 X130.534 Y64.437 E0.01899
G1 X131.003 Y64.097 E0.01817
G1 X131.509 Y63.819 E0.01811
G1 X132.046 Y63.606 E0.01811
G1 X132.605 Y63.462 E0.01811
G1 X133.178 Y63.390 E0.01811
G1 X133.755 Y63.390 E0.01811
G1 X134.328 Y63.462 E0.01811
G1 X134.888 Y63.606 E0.01811
G1 X135.425 Y63.819 E0.01811
G1 X135.931 Y64.097 E0.01811
G1 X136.398 Y64.436 E0.01811
G1 X136.797 Y64.811 E0.01716
G1 X137.186 Y65.275 E0.01899
G1 X137.496 Y65.764 E0.01817
G1 X137.742 Y66.287 E0.01811
G1 X137.921 Y66.836 E0.01811
G1 X138.029 Y67.403 E0.01811
G1 X138.065 Y67.980 E0.01811
G1 X138.029 Y68.556 E0.01811
G1 X137.921 Y69.123 E0.01811
G1 X137.742 Y69.672 E0.01811
G1 X137.496 Y70.195 E0.01811
G1 X137.187 Y70.683 E0.01811
G1 X136.819 Y71.127 E0.01811
G1 X136.398 Y71.523 E0.01811
G1 X135.931 Y71.862 E0.01811
G1 X135.425 Y72.140 E0.01811
G1 X134.888 Y72.353 E0.01811
G1 X134.328 Y72.497 E0.01811
G1 X133.755 Y72.569 E0.01811
G1 X133.178 Y72.569 E0.01811
G1 X132.605 Y72.497 E0.01811
G1 X132.046 Y72.353 E0.01811
G1 X131.509 Y72.140 E0.01811
G1 X131.003 Y71.862 E0.01811
G1 X130.535 Y71.523 E0.01811
G1 X130.114 Y71.127 E0.01811
G1 X129.746 Y70.683 E0.01811
G1 X129.437 Y70.195 E0.01811
G1 X129.191 Y69.672 E0.01811
G1 X129.013 Y69.123 E0.01811
G1 X128.904 Y68.556 E0.01811
G1 X128.868 Y67.980 E0.01811
G1 X128.902 Y67.433 E0.01716
G1 X129.001 Y66.897 E0.01711
G1 X129.372 Y66.965 F10800.000
G1 F1200.000
G1 X129.542 Y66.426 E0.01773
G1 X129.768 Y65.946 E0.01662
G1 X130.052 Y65.499 E0.01662
G1 X130.371 Y65.112 E0.01571
G1 X130.776 Y64.728 E0.01750
G1 X131.205 Y64.416 E0.01664
G1 X131.670 Y64.160 E0.01662
G1 X132.162 Y63.965 E0.01662
G1 X132.676 Y63.833 E0.01662
G1 X133.202 Y63.767 E0.01662
G1 X133.732 Y63.767 E0.01662
G1 X134.258 Y63.833 E0.01662
G1 X134.771 Y63.965 E0.01662
G1 X135.264 Y64.160 E0.01662
G1 X135.728 Y64.416 E0.01662
G1 X136.157 Y64.727 E0.01662
G1 X136.522 Y65.070 E0.01571
G1 X136.881 Y65.498 E0.01750
G1 X137.165 Y65.946 E0.01664
G1 X137.391 Y66.426 E0.01662
G1 X137.555 Y66.930 E0.01662
G1 X137.654 Y67.450 E0.01662
G1 X137.687 Y67.980 E0.01662
G1 X137.654 Y68.509 E0.01662
G1 X137.555 Y69.029 E0.01662
G1 X137.391 Y69.533 E0.01662
G1 X137.165 Y70.013 E0.01662
G1 X136.881 Y70.460 E0.01662
G1 X136.544 Y70.869 E0.01662
G1 X136.157 Y71.232 E0.01662
G1 X135.728 Y71.543 E0.01662
G1 X135.264 Y71.799 E0.01662
G1 X134.771 Y71.994 E0.01662
G1 X134.258 Y72.126 E0.01662
G1 X133.732 Y72.192 E0.01662
G1 X133.202 Y72.192 E0.01662
G1 X132.676 Y72.126 E0.01662
G1 X132.162 Y71.994 E0.01662
G1 X131.670 Y71.799 E0.01662
G1 X131.205 Y71.543 E0.01662
G1 X130.776 Y71.232 E0.01662
G1 X130.390 Y70.869 E0.01662
G1 X130.052 Y70.460 E0.01662
G1 X129.768 Y70.013 E0.01662
G1 X129.542 Y69.533 E0.01662
G1 X129.378 Y69.029 E0.01662
G1 X129.279 Y68.509 E0.01662
G1 X129.246 Y67.980 E0.01662
G1 X129.277 Y67.479 E0.01571
G1 X129.361 Y67.024 E0.01452
G1 X129.084 Y66.687 F10800.000
G1 F8640.000
G1 X129.542 Y66.426 E-0.14433
G1 X129.768 Y65.946 E-0.12239
G1 X130.052 Y65.499 E-0.12239
G1 X130.371 Y65.112 E-0.11570
G1 X130.776 Y64.728 E-0.12887
G1 X131.205 Y64.416 E-0.12255
G1 X131.219 Y64.408 E-0.00376
G1 E-0.04000 F2100.00000
G1 Z0.800 F10800.000
G1 X145.801 Y67.980
G1 Z0.200
G1 E0.80000 F2100.00000
G1 F1200.000
G1 X145.836 Y67.433 E0.01716
G1 X145.945 Y66.838 E0.01899
G1 X146.124 Y66.287 E0.01817
G1 X146.370 Y65.764 E0.01811
G1 X146.680 Y65.276 E0.01811
G1 X147.048 Y64.832 E0.01811
G1 X147.469 Y64.436 E0.01811
G1 X147.936 Y64.097 E0.01811
G1 X148.442 Y63.819 E0.01811
G1 X148.979 Y63.606 E0.01811
G1 X149.538 Y63.462 E0.01811
G1 X150.111 Y63.390 E0.01811
G1 X150.689 Y63.390 E0.01811
G1 X151.262 Y63.462 E0.01811
G1 X151.821 Y63.606 E0.01811
G1 X152.358 Y63.819 E0.01811
G1 X152.864 Y64.097 E0.01811
G1 X153.331 Y64.436 E0.01811
G1 X153.730 Y64.811 E0.01716
G1 X154.119 Y65.275 E0.01899
G1 X154.430 Y65.764 E0.01817
G1 X154.676 Y66.287 E0.01811
G1 X154.854 Y66.836 E0.01811
G1 X154.962 Y67.403 E0.01811
G1 X154.999 Y67.980 E0.01811
G1 X154.962 Y68.556 E0.01811
G1 X154.854 Y69.123 E0.01811
G1 X154.676 Y69.672 E0.01811
G1 X154.430 Y70.195 E0.01811
G1 X154.120 Y70.683 E0.01811
G1 X153.752 Y71.127 E0.01811
G1 X153.331 Y71.523 E0.01811
G1 X152.864 Y71.862 E0.01811
G1 X152.358 Y72.140 E0.01811
G1 X151.821 Y72.353 E0.01811
G1 X151.262 Y72.497 E0.01811
G1 X150.689 Y72.569 E0.01811
G1 X150.111 Y72.569 E0.01811
G1 X149.538 Y72.497 E0.01811
G1 X148.979 Y72.353 E0.01811
G1 X148.442 Y72.140 E0.01811
G1 X147.936 Y71.862 E0.01811
G1 X147.469 Y71.523 E0.01811
G1 X147.048 Y71.127 E0.01811
G1 X146.680 Y70.683 E0.01811
G1 X146.370 Y70.195 E0.01811
G1 X146.124 Y69.672 E0.01811
G1 X145.946 Y69.123 E0.01811
G1 X145.838 Y68.556 E0.01811
G1 X145.805 Y68.039 E0.01623
G1 X146.181 Y68.016 F10800.000
G1 F1200.000
G1 X146.211 Y67.479 E0.01684
G1 X146.312 Y66.930 E0.01750
G1 X146.476 Y66.426 E0.01664
G1 X146.701 Y65.946 E0.01662
G1 X146.985 Y65.499 E0.01662
G1 X147.323 Y65.090 E0.01662
G1 X147.710 Y64.727 E0.01662
G1 X148.138 Y64.416 E0.01662
G1 X148.603 Y64.160 E0.01662
G1 X149.096 Y63.965 E0.01662
G1 X149.609 Y63.833 E0.01662
G1 X150.135 Y63.767 E0.01662
G1 X150.665 Y63.767 E0.01662
G1 X151.191 Y63.833 E0.01662
G1 X151.704 Y63.965 E0.01662
G1 X152.197 Y64.160 E0.01662
G1 X152.662 Y64.416 E0.01662
G1 X153.090 Y64.727 E0.01662
G1 X153.456 Y65.070 E0.01571
G1 X153.814 Y65.498 E0.01750
G1 X154.099 Y65.946 E0.01664
G1 X154.324 Y66.426 E0.01662
G1 X154.488 Y66.930 E0.01662
G1 X154.588 Y67.450 E0.01662
G1 X154.621 Y67.980 E0.01662
G1 X154.588 Y68.509 E0.01662
G1 X154.488 Y69.029 E0.01662
G1 X154.324 Y69.533 E0.01662
G1 X154.099 Y70.013 E0.01662
G1 X153.815 Y70.460 E0.01662
G1 X153.477 Y70.869 E0.01662
G1 X153.090 Y71.232 E0.01662
G1 X152.662 Y71.543 E0.01662
G1 X152.197 Y71.799 E0.01662
G1 X151.704 Y71.994 E0.01662
G1 X151.191 Y72.126 E0.01662
G1 X150.665 Y72.192 E0.01662
G1 X150.135 Y72.192 E0.01662
G1 X149.609 Y72.126 E0.01662
G1 X149.096 Y71.994 E0.01662
G1 X148.603 Y71.799 E0.01662
G1 X148.138 Y71.543 E0.01662
G1 X147.710 Y71.232 E0.01662
G1 X147.323 Y70.869 E0.01662
G1 X146.985 Y70.460 E0.01662
G1 X146.701 Y70.013 E0.01662
G1 X146.476 Y69.533 E0.01662
G1 X146.312 Y69.029 E0.01662
G1 X146.212 Y68.509 E0.01662
G1 X146.185 Y68.076 E0.01360
G1 X145.834 Y67.818 F10800.000
G1 F8640.000
G1 X146.211 Y67.479 E-0.13778
G1 X146.312 Y66.930 E-0.12887
G1 X146.476 Y66.426 E-0.12255
G1 X146.701 Y65.946 E-0.12239
G1 X146.985 Y65.499 E-0.12239
G1 X147.323 Y65.090 E-0.12239
G1 X147.335 Y65.079 E-0.00362
G1 E-0.04000 F2100.00000
G1 Z0.800 F10800.000
G1 X170.731 Y64.171
G1 Z0.200
G1 E0.80000 F2100.00000
G1 F1200.000
G1 X170.692 Y63.725 E0.01404
G1 X170.731 Y63.279 E0.01404
G1 X170.847 Y62.847 E0.01404
G1 X171.036 Y62.441 E0.01404
G1 X171.293 Y62.074 E0.01404
G1 X171.609 Y61.758 E0.01404
G1 X171.976 Y61.501 E0.01404
G1 X172.382 Y61.312 E0.01404
G1 X172.814 Y61.196 E0.01404
G1 X173.229 Y61.160 E0.01305
G1 X173.702 Y61.195 E0.01489
G1 X174.138 Y61.312 E0.01416
G1 X174.544 Y61.501 E0.01404
G1 X174.911 Y61.758 E0.01404
G1 X175.227 Y62.074 E0.01404
G1 X175.484 Y62.441 E0.01404
G1 X175.660 Y62.818 E0.01305
G1 X175.789 Y63.275 E0.01489
G1 X175.828 Y63.725 E0.01416
G1 X175.789 Y64.171 E0.01404
G1 X175.673 Y64.603 E0.01404
G1 X175.484 Y65.009 E0.01404
G1 X175.227 Y65.376 E0.01404
G1 X174.911 Y65.692 E0.01404
G1 X174.544 Y65.949 E0.01404
G1 X174.138 Y66.138 E0.01404
G1 X173.706 Y66.254 E0.01404
G1 X173.260 Y66.293 E0.01404
G1 X172.814 Y66.254 E0.01404
G1 X172.382 Y66.138 E0.01404
G1 X171.976 Y65.949 E0.01404
G1 X171.609 Y65.692 E0.01404
G1 X171.293 Y65.376 E0.01404
G1 X171.036 Y65.009 E0.01404
G1 X170.847 Y64.603 E0.01404
G1 X170.746 Y64.229 E0.01215
G1 X171.111 Y64.131 F10800.000
G1 F1200.000
G1 X171.070 Y63.725 E0.01280
G1 X171.104 Y63.345 E0.01197
G1 X171.202 Y62.976 E0.01197
G1 X171.364 Y62.630 E0.01197
G1 X171.583 Y62.318 E0.01197
G1 X171.853 Y62.048 E0.01197
G1 X172.165 Y61.829 E0.01197
G1 X172.511 Y61.667 E0.01197
G1 X172.880 Y61.569 E0.01197
G1 X173.231 Y61.538 E0.01106
G1 X173.639 Y61.568 E0.01282
G1 X174.009 Y61.667 E0.01201
G1 X174.355 Y61.829 E0.01197
G1 X174.667 Y62.048 E0.01197
G1 X174.937 Y62.318 E0.01197
G1 X175.156 Y62.630 E0.01197
G1 X175.305 Y62.950 E0.01106
G1 X175.416 Y63.343 E0.01282
G1 X175.450 Y63.725 E0.01201
G1 X175.416 Y64.105 E0.01197
G1 X175.318 Y64.474 E0.01197
G1 X175.156 Y64.820 E0.01197
G1 X174.937 Y65.132 E0.01197
G1 X174.667 Y65.402 E0.01197
G1 X174.355 Y65.621 E0.01197
G1 X174.009 Y65.783 E0.01197
G1 X173.640 Y65.881 E0.01197
G1 X173.260 Y65.915 E0.01197
G1 X172.880 Y65.881 E0.01197
G1 X172.511 Y65.783 E0.01197
G1 X172.165 Y65.621 E0.01197
G1 X171.853 Y65.402 E0.01197
G1 X171.583 Y65.132 E0.01197
G1 X171.364 Y64.820 E0.01197
G1 X171.202 Y64.474 E0.01197
G1 X171.126 Y64.189 E0.00924
G1 X170.734 Y63.998 F10800.000
G1 F8640.000
G1 X171.070 Y63.725 E-0.10797
G1 X171.104 Y63.345 E-0.08813
G1 X171.202 Y62.976 E-0.08813
G1 X171.364 Y62.630 E-0.08813
G1 X171.583 Y62.318 E-0.08813
G1 X171.853 Y62.048 E-0.08813
G1 X172.165 Y61.829 E-0.08813
G1 X172.511 Y61.667 E-0.08813
G1 X172.658 Y61.628 E-0.03513
G1 E-0.04000 F2100.00000
G1 Z0.800 F10800.000
G1 X171.469 Y74.935
G1 Z0.200
G1 E0.80000 F2100.00000
G1 F1200.000
G1 X171.942 Y74.970 E0.01489
G1 X172.378 Y75.087 E0.01416
G1 X172.784 Y75.276 E0.01404
G1 X173.151 Y75.533 E0.01404
G1 X173.467 Y75.849 E0.01404
G1 X173.724 Y76.216 E0.01404
G1 X173.913 Y76.622 E0.01404
G1 X174.029 Y77.054 E0.01404
G1 X174.068 Y77.500 E0.01404
G1 X174.029 Y77.946 E0.01404
G1 X173.913 Y78.378 E0.01404
G1 X173.724 Y78.784 E0.01404
G1 X173.467 Y79.151 E0.01404
G1 X173.151 Y79.467 E0.01404
G1 X172.784 Y79.724 E0.01404
G1 X172.378 Y79.913 E0.01404
G1 X171.946 Y80.029 E0.01404
G1 X171.500 Y80.068 E0.01404
G1 X171.054 Y80.029 E0.01404
G1 X170.622 Y79.913 E0.01404
G1 X170.216 Y79.724 E0.01404
G1 X169.849 Y79.467 E0.01404
G1 X169.533 Y79.151 E0.01404
G1 X169.276 Y78.784 E0.01404
G1 X169.087 Y78.378 E0.01404
G1 X168.971 Y77.946 E0.01404
G1 X168.932 Y77.500 E0.01404
G1 X168.971 Y77.054 E0.01404
G1 X169.087 Y76.622 E0.01404
G1 X169.276 Y76.216 E0.01404
G1 X169.533 Y75.849 E0.01404
G1 X169.849 Y75.533 E0.01404
G1 X170.216 Y75.276 E0.01404
G1 X170.622 Y75.087 E0.01404
G1 X171.054 Y74.971 E0.01404
G1 X171.409 Y74.940 E0.01117
G1 X171.879 Y75.343 F10800.000
G1 F1200.000
G1 X172.249 Y75.442 E0.01201
G1 X172.595 Y75.604 E0.01197
G1 X172.907 Y75.823 E0.01197
G1 X173.177 Y76.093 E0.01197
G1 X173.396 Y76.405 E0.01197
G1 X173.558 Y76.751 E0.01197
G1 X173.656 Y77.120 E0.01197
G1 X173.690 Y77.500 E0.01197
G1 X173.656 Y77.880 E0.01197
G1 X173.558 Y78.249 E0.01197
G1 X173.396 Y78.595 E0.01197
G1 X173.177 Y78.907 E0.01197
G1 X172.907 Y79.177 E0.01197
G1 X172.595 Y79.396 E0.01197
G1 X172.249 Y79.558 E0.01197
G1 X171.880 Y79.656 E0.01197
G1 X171.500 Y79.690 E0.01197
G1 X171.120 Y79.656 E0.01197
G1 X170.751 Y79.558 E0.01197
G1 X170.405 Y79.396 E0.01197
G1 X170.093 Y79.177 E0.01197
G1 X169.823 Y78.907 E0.01197
G1 X169.604 Y78.595 E0.01197
G1 X169.442 Y78.249 E0.01197
G1 X169.344 Y77.880 E0.01197
G1 X169.310 Y77.500 E0.01197
G1 X169.344 Y77.120 E0.01197
G1 X169.442 Y76.751 E0.01197
G1 X169.604 Y76.405 E0.01197
G1 X169.823 Y76.093 E0.01197
G1 X170.093 Y75.823 E0.01197
G1 X170.405 Y75.604 E0.01197
G1 X170.751 Y75.442 E0.01197
G1 X171.120 Y75.344 E0.01197
G1 X171.471 Y75.313 E0.01106
G1 X171.819 Y75.339 E0.01094
G1 X172.125 Y75.050 F10800.000
G1 F8640.000
G1 X172.249 Y75.442 E-0.10209
G1 X172.595 Y75.604 E-0.08813
G1 X172.907 Y75.823 E-0.08813
G1 X173.177 Y76.093 E-0.08813
G1 X173.396 Y76.405 E-0.08813
G1 X173.558 Y76.751 E-0.08813
G1 X173.656 Y77.120 E-0.08813
G1 X173.690 Y77.500 E-0.08813
G1 X173.674 Y77.677 E-0.04102
G1 E-0.04000 F2100.00000
G1 Z0.800 F10800.000
G1 X171.469 Y129.935
G1 Z0.200
G1 E0.80000 F2100.00000
G1 F1200.000
G1 X171.942 Y129.970 E0.01489
G1 X172.378 Y130.087 E0.01416
G1 X172.784 Y130.276 E0.01404
G1 X173.151 Y130.533 E0.01404
G1 X173.467 Y130.849 E0.01404
G1 X173.724 Y131.216 E0.01404
G1 X173.913 Y131.622 E0.01404
G1 X174.029 Y132.054 E0.01404
G1 X174.068 Y132.500 E0.01404
G1 X174.029 Y132.946 E0.01404
G1 X173.913 Y133.378 E0.01404
G1 X173.724 Y133.784 E0.01404
G1 X173.467 Y134.151 E0.01404
G1 X173.151 Y134.467 E0.01404
G1 X172.784 Y134.724 E0.01404
G1 X172.378 Y134.913 E0.01404
G1 X171.946 Y135.029 E0.01404
G1 X171.500 Y135.068 E0.01404
G1 X171.054 Y135.029 E0.01404
G1 X170.622 Y134.913 E0.01404
G1 X170.216 Y134.724 E0.01404
G1 X169.849 Y134.467 E0.01404
G1 X169.533 Y134.151 E0.01404
G1 X169.276 Y133.784 E0.01404
G1 X169.087 Y133.378 E0.01404
G1 X168.971 Y132.946 E0.01404
G1 X168.932 Y132.500 E0.01404
G1 X168.971 Y132.054 E0.01404
G1 X169.087 Y131.622 E0.01404
G1 X169.276 Y131.216 E0.01404
G1 X169.533 Y130.849 E0.01404
G1 X169.849 Y130.533 E0.01404
G1 X170.216 Y130.276 E0.01404
G1 X170.622 Y130.087 E0.01404
G1 X171.054 Y129.971 E0.01404
G1 X171.409 Y129.940 E0.01117
G1 X171.879 Y130.343 F10800.000
G1 F1200.000
G1 X172.249 Y130.442 E0.01201
G1 X172.595 Y130.604 E0.01197
G1 X172.907 Y130.823 E0.01197
G1 X173.177 Y131.093 E0.01197
G1 X173.396 Y131.405 E0.01197
G1 X173.558 Y131.751 E0.01197
G1 X173.656 Y132.120 E0.01197
G1 X173.690 Y132.500 E0.01197
G1 X173.656 Y132.880 E0.01197
G1 X173.558 Y133.249 E0.01197
