( Made using CamBam - http://www.cambam.co.uk )
( Display 11/29/2012 7:05:26 PM )
( T4 : 0.125 )
G20 G90 G64 G40
G0 Z0.25
( T4 : 0.125 )
T4 M6
( Drill2 )
G17
M3 S25000
G0 X1.237 Y0.54
G0 Z0.25
G0 X1.3195 Y0.54
G1 F30.0 Z0.0
G2 F50.0 X1.1958 Y0.4686 Z-0.0333 I-0.0825 J0.0
G2 Y0.6114 Z-0.0667 I0.0413 J0.0714
G2 X1.3195 Y0.54 Z-0.1 I0.0413 J-0.0714
G2 X1.1958 Y0.4686 Z-0.1333 I-0.0825 J0.0
G2 Y0.6114 Z-0.1667 I0.0413 J0.0714
G2 X1.3195 Y0.54 Z-0.2 I0.0413 J-0.0714
G2 X1.1958 Y0.4686 Z-0.2333 I-0.0825 J0.0
G2 X1.1545 Y0.54 Z-0.25 I0.0412 J0.0714
G2 X1.2783 Y0.6114 I0.0825 J0.0
G2 Y0.4686 I-0.0413 J-0.0714
G2 X1.1545 Y0.54 I-0.0412 J0.0714
G0 Z0.25
G0 X1.9895
G1 F30.0 Z0.0
G2 F50.0 X1.8658 Y0.4686 Z-0.0333 I-0.0825 J0.0
G2 Y0.6114 Z-0.0667 I0.0413 J0.0714
G2 X1.9895 Y0.54 Z-0.1 I0.0413 J-0.0714
G2 X1.8658 Y0.4686 Z-0.1333 I-0.0825 J0.0
G2 Y0.6114 Z-0.1667 I0.0413 J0.0714
G2 X1.9895 Y0.54 Z-0.2 I0.0413 J-0.0714
G2 X1.8658 Y0.4686 Z-0.2333 I-0.0825 J0.0
G2 X1.8245 Y0.54 Z-0.25 I0.0412 J0.0714
G2 X1.9483 Y0.6114 I0.0825 J0.0
G2 Y0.4686 I-0.0413 J-0.0714
G2 X1.8245 Y0.54 I-0.0412 J0.0714
G0 Z0.25
G0 X2.6565
G1 F30.0 Z0.0
G2 F50.0 X2.5328 Y0.4686 Z-0.0333 I-0.0825 J0.0
G2 Y0.6114 Z-0.0667 I0.0412 J0.0714
G2 X2.6565 Y0.54 Z-0.1 I0.0413 J-0.0714
G2 X2.5328 Y0.4686 Z-0.1333 I-0.0825 J0.0
G2 Y0.6114 Z-0.1667 I0.0412 J0.0714
G2 X2.6565 Y0.54 Z-0.2 I0.0413 J-0.0714
G2 X2.5328 Y0.4686 Z-0.2333 I-0.0825 J0.0
G2 X2.4915 Y0.54 Z-0.25 I0.0412 J0.0714
G2 X2.6153 Y0.6114 I0.0825 J0.0
G2 Y0.4686 I-0.0413 J-0.0714
G2 X2.4915 Y0.54 I-0.0412 J0.0714
G0 Z0.25
G0 X3.3235
G1 F30.0 Z0.0
G2 F50.0 X3.1998 Y0.4686 Z-0.0333 I-0.0825 J0.0
G2 Y0.6114 Z-0.0667 I0.0412 J0.0714
G2 X3.3235 Y0.54 Z-0.1 I0.0413 J-0.0714
G2 X3.1998 Y0.4686 Z-0.1333 I-0.0825 J0.0
G2 Y0.6114 Z-0.1667 I0.0412 J0.0714
G2 X3.3235 Y0.54 Z-0.2 I0.0413 J-0.0714
G2 X3.1998 Y0.4686 Z-0.2333 I-0.0825 J0.0
G2 X3.1585 Y0.54 Z-0.25 I0.0412 J0.0714
G2 X3.2823 Y0.6114 I0.0825 J0.0
G2 Y0.4686 I-0.0413 J-0.0714
G2 X3.1585 Y0.54 I-0.0412 J0.0714
G0 Z0.25
G0 X4.1325 Y0.375
G1 F30.0 Z0.0
G2 F50.0 X4.1213 Y0.3685 Z-0.0333 I-0.0075 J0.0
G2 Y0.3815 Z-0.0667 I0.0038 J0.0065
G2 X4.1325 Y0.375 Z-0.1 I0.0038 J-0.0065
G2 X4.1213 Y0.3685 Z-0.1333 I-0.0075 J0.0
G2 Y0.3815 Z-0.1667 I0.0038 J0.0065
G2 X4.1325 Y0.375 Z-0.2 I0.0038 J-0.0065
G2 X4.1213 Y0.3685 Z-0.2333 I-0.0075 J0.0
G2 X4.1175 Y0.375 Z-0.25 I0.0038 J0.0065
G2 X4.1288 Y0.3815 I0.0075 J0.0
G2 Y0.3685 I-0.0038 J-0.0065
G2 X4.1175 Y0.375 I-0.0038 J0.0065
G0 Z0.25
G0 X4.0882 Y0.915
G1 F30.0 Z0.0
G2 F50.0 X4.077 Y0.9085 Z-0.0333 I-0.0075 J0.0
G2 Y0.9215 Z-0.0667 I0.0038 J0.0065
G2 X4.0882 Y0.915 Z-0.1 I0.0038 J-0.0065
G2 X4.077 Y0.9085 Z-0.1333 I-0.0075 J0.0
G2 Y0.9215 Z-0.1667 I0.0038 J0.0065
G2 X4.0882 Y0.915 Z-0.2 I0.0038 J-0.0065
G2 X4.077 Y0.9085 Z-0.2333 I-0.0075 J0.0
G2 X4.0732 Y0.915 Z-0.25 I0.0038 J0.0065
G2 X4.0845 Y0.9215 I0.0075 J0.0
G2 Y0.9085 I-0.0038 J-0.0065
G2 X4.0732 Y0.915 I-0.0038 J0.0065
G0 Z0.25
G0 X3.5625 Y2.0
G1 F30.0 Z0.0
G2 F50.0 X3.4688 Y1.9459 Z-0.0333 I-0.0625 J0.0
G2 Y2.0541 Z-0.0667 I0.0313 J0.0541
G2 X3.5625 Y2.0 Z-0.1 I0.0313 J-0.0541
G2 X3.4688 Y1.9459 Z-0.1333 I-0.0625 J0.0
G2 Y2.0541 Z-0.1667 I0.0313 J0.0541
G2 X3.5625 Y2.0 Z-0.2 I0.0313 J-0.0541
G2 X3.4688 Y1.9459 Z-0.2333 I-0.0625 J0.0
G2 X3.4375 Y2.0 Z-0.25 I0.0313 J0.0541
G2 X3.5313 Y2.0541 I0.0625 J0.0
G2 Y1.9459 I-0.0313 J-0.0541
G2 X3.4375 Y2.0 I-0.0313 J0.0541
G0 Z0.25
G0 X4.0882 Y3.0804
G1 F30.0 Z0.0
G2 F50.0 X4.077 Y3.0739 Z-0.0333 I-0.0075 J0.0
G2 Y3.0869 Z-0.0667 I0.0038 J0.0065
G2 X4.0882 Y3.0804 Z-0.1 I0.0038 J-0.0065
G2 X4.077 Y3.0739 Z-0.1333 I-0.0075 J0.0
G2 Y3.0869 Z-0.1667 I0.0038 J0.0065
G2 X4.0882 Y3.0804 Z-0.2 I0.0038 J-0.0065
G2 X4.077 Y3.0739 Z-0.2333 I-0.0075 J0.0
G2 X4.0732 Y3.0804 Z-0.25 I0.0038 J0.0065
G2 X4.0845 Y3.0869 I0.0075 J0.0
G2 Y3.0739 I-0.0038 J-0.0065
G2 X4.0732 Y3.0804 I-0.0038 J0.0065
G0 Z0.25
G0 X4.1825 Y3.625
G1 F30.0 Z0.0
G2 F50.0 X4.1713 Y3.6185 Z-0.0333 I-0.0075 J0.0
G2 Y3.6315 Z-0.0667 I0.0038 J0.0065
G2 X4.1825 Y3.625 Z-0.1 I0.0038 J-0.0065
G2 X4.1713 Y3.6185 Z-0.1333 I-0.0075 J0.0
G2 Y3.6315 Z-0.1667 I0.0038 J0.0065
G2 X4.1825 Y3.625 Z-0.2 I0.0038 J-0.0065
G2 X4.1713 Y3.6185 Z-0.2333 I-0.0075 J0.0
G2 X4.1675 Y3.625 Z-0.25 I0.0038 J0.0065
G2 X4.1788 Y3.6315 I0.0075 J0.0
G2 Y3.6185 I-0.0038 J-0.0065
G2 X4.1675 Y3.625 I-0.0038 J0.0065
G0 Z0.25
G0 X1.0625 Y2.0
G1 F30.0 Z0.0
G2 F50.0 X0.9688 Y1.9459 Z-0.0333 I-0.0625 J0.0
G2 Y2.0541 Z-0.0667 I0.0313 J0.0541
G2 X1.0625 Y2.0 Z-0.1 I0.0313 J-0.0541
G2 X0.9688 Y1.9459 Z-0.1333 I-0.0625 J0.0
G2 Y2.0541 Z-0.1667 I0.0313 J0.0541
G2 X1.0625 Y2.0 Z-0.2 I0.0313 J-0.0541
G2 X0.9688 Y1.9459 Z-0.2333 I-0.0625 J0.0
G2 X0.9375 Y2.0 Z-0.25 I0.0312 J0.0541
G2 X1.0313 Y2.0541 I0.0625 J0.0
G2 Y1.9459 I-0.0313 J-0.0541
G2 X0.9375 Y2.0 I-0.0313 J0.0541
G0 Z0.25
G0 X0.4269 Y3.0804
G1 F30.0 Z0.0
G2 F50.0 X0.4157 Y3.0739 Z-0.0333 I-0.0075 J0.0
G2 Y3.0869 Z-0.0667 I0.0038 J0.0065
G2 X0.4269 Y3.0804 Z-0.1 I0.0037 J-0.0065
G2 X0.4157 Y3.0739 Z-0.1333 I-0.0075 J0.0
G2 Y3.0869 Z-0.1667 I0.0038 J0.0065
G2 X0.4269 Y3.0804 Z-0.2 I0.0037 J-0.0065
G2 X0.4157 Y3.0739 Z-0.2333 I-0.0075 J0.0
G2 X0.4119 Y3.0804 Z-0.25 I0.0038 J0.0065
G2 X0.4232 Y3.0869 I0.0075 J0.0
G2 Y3.0739 I-0.0038 J-0.0065
G2 X0.4119 Y3.0804 I-0.0037 J0.0065
G0 Z0.25
G0 X0.3825 Y3.625
G1 F30.0 Z0.0
G2 F50.0 X0.3713 Y3.6185 Z-0.0333 I-0.0075 J0.0
G2 Y3.6315 Z-0.0667 I0.0038 J0.0065
G2 X0.3825 Y3.625 Z-0.1 I0.0037 J-0.0065
G2 X0.3713 Y3.6185 Z-0.1333 I-0.0075 J0.0
G2 Y3.6315 Z-0.1667 I0.0038 J0.0065
G2 X0.3825 Y3.625 Z-0.2 I0.0037 J-0.0065
G2 X0.3713 Y3.6185 Z-0.2333 I-0.0075 J0.0
G2 X0.3675 Y3.625 Z-0.25 I0.0038 J0.0065
G2 X0.3788 Y3.6315 I0.0075 J0.0
G2 Y3.6185 I-0.0038 J-0.0065
G2 X0.3675 Y3.625 I-0.0037 J0.0065
G0 Z0.25
G0 X0.4269 Y0.915
G1 F30.0 Z0.0
G2 F50.0 X0.4157 Y0.9085 Z-0.0333 I-0.0075 J0.0
G2 Y0.9215 Z-0.0667 I0.0037 J0.0065
G2 X0.4269 Y0.915 Z-0.1 I0.0038 J-0.0065
G2 X0.4157 Y0.9085 Z-0.1333 I-0.0075 J0.0
G2 Y0.9215 Z-0.1667 I0.0037 J0.0065
G2 X0.4269 Y0.915 Z-0.2 I0.0038 J-0.0065
G2 X0.4157 Y0.9085 Z-0.2333 I-0.0075 J0.0
G2 X0.4119 Y0.915 Z-0.25 I0.0037 J0.0065
G2 X0.4232 Y0.9215 I0.0075 J0.0
G2 Y0.9085 I-0.0038 J-0.0065
G2 X0.4119 Y0.915 I-0.0037 J0.0065
G0 Z0.25
G0 X0.3825 Y0.375
G1 F30.0 Z0.0
G2 F50.0 X0.3713 Y0.3685 Z-0.0333 I-0.0075 J0.0
G2 Y0.3815 Z-0.0667 I0.0037 J0.0065
G2 X0.3825 Y0.375 Z-0.1 I0.0038 J-0.0065
G2 X0.3713 Y0.3685 Z-0.1333 I-0.0075 J0.0
G2 Y0.3815 Z-0.1667 I0.0037 J0.0065
G2 X0.3825 Y0.375 Z-0.2 I0.0038 J-0.0065
G2 X0.3713 Y0.3685 Z-0.2333 I-0.0075 J0.0
G2 X0.3675 Y0.375 Z-0.25 I0.0037 J0.0065
G2 X0.3788 Y0.3815 I0.0075 J0.0
G2 Y0.3685 I-0.0038 J-0.0065
G2 X0.3675 Y0.375 I-0.0037 J0.0065
G0 Z0.25
M5
M30
